!!!!SEGMENT: pl-cz--ii-153--007_maader-ludwik--requiem-in-dis-lux-aeterna.krn
!!!cenid: 17xx:966
!!!COM: Maader, Ludwik
!!!COM-rismid: pe30020328
!!!CDT: <1794->1798
!!!CNT:
!!!OPR: Requiem in Dis
!!!OTL: Lux aeterna
!!!OMV: 007
!!!PDT:
!!!AGN: Sacred; Requiem
!!!SMS-siglum: PL-CZ
!!!SMS-shelfmark: II-153
!!!SMS-shelfwork: 001-007 M
!!!SMS-variant:
!!!SMS-altvar:
!!!NIFC-rismid: 300000766
!!!URL-scan: http://repozytorium.nifc.pl/skany/pl-cz-nut--ii-153
!!!ONB-nifc: UWAGA: części Requiem: Requiem, Dies irae, Domine Jesu Christe, Sanctus, Benedictus, Agnus, Lux aeterna, Requiem
**kern	**fb	**dynam	**kern	**dynam	**kern	**kern	**text	**kern	**text	**kern	**text	**kern	**text	**kern	**dynam	**kern	**dynam
*part9	*	*part9	*part8	*part8	*part7	*part6	*part6	*part5	*part5	*part4	*part4	*part3	*part3	*part2	*part2	*part1	*part1
*group	*	*group	*group3	*group3	*group3	*group2	*group2	*group2	*group2	*group2	*group2	*group2	*group2	*group1	*group1	*group1	*group1
*staff9	*	*	*staff8	*	*staff7	*staff6	*staff6	*staff5	*staff5	*staff4	*staff4	*staff3	*staff3	*staff2	*	*staff1	*
*Iorgan	*	*	*Ivioln	*	*Ivioln	*Iempty	*	*Itenor	*	*Ialto	*	*Ivox	*	*Iempty	*	*Iempty	*
*I"Organo	*	*	*I"Violino Secondo.	*	*I"Violino Primo	*I"Baſso	*	*I"Tenore	*	*I"Alto	*	*I"Canto	*	*I"Cornu Secondo obl in Dis	*	*I"Cornu Primo in Dis obl.	*
*I'org	*	*	*I'vl 2	*	*I'vl 1	*I'B	*	*I'T	*	*I'A	*	*I'C	*	*I'cor 2	*	*I'cor 1	*
*clefF4	*	*	*clefG2	*	*clefG2	*clefF4	*	*clefC4	*	*clefC3	*	*clefC1	*	*clefG2	*	*clefG2	*
*	*	*	*	*	*	*	*	*	*	*	*	*	*	*ITrd5c9	*	*ITrd5c9	*
*k[b-e-a-]	*	*	*k[b-e-a-]	*	*k[b-e-a-]	*k[b-e-a-]	*	*k[b-e-a-]	*	*k[b-e-a-]	*	*k[b-e-a-]	*	*k[b-e-a-]	*	*k[b-e-a-]	*
*E-:	*	*	*E-:	*	*E-:	*E-:	*	*E-:	*	*E-:	*	*E-:	*	*E-:	*	*E-:	*
*M3/8	*	*	*M3/8	*	*M3/8	*M3/8	*	*M3/8	*	*M3/8	*	*M3/8	*	*M3/8	*	*M3/8	*
=1	=1	=1	=1	=1	=1	=1	=1	=1	=1	=1	=1	=1	=1	=1	=1	=1	=1
*	*above	*	*	*	*	*	*	*	*	*	*	*	*	*	*	*	*
!LO:TX:a:i:t=ſolo	!	!	!	!	!	!	!	!	!	!LO:TX:t=P:problem:w źródle znaki przykluczowe na wysokościach B- f- B-	!	!LO:TX:t=P:problem:w źródle znaki przykluczowe na wysokościach a- ee- e-	!	!	!	!	!
!LO:TX:a:i:t=allo moderato	!	!	!LO:TX:a:i:t=allo moderato	!	!LO:TX:t=P:problem:w źródle znaki przykluczowe na wysokościach cc- gg- b-	!LO:TX:t=P:problem:w źródle znaki przykluczowe na wysokościach C- G- C-	!	!LO:TX:t=P:problem:w źródle znaki przykluczowe na wysokościach F- e- E-	!	!LO:TX:a:i:t=ſolo	!	!LO:TX:a:t=solo	!	!LO:TX:a:i:t=allo moderato	!	!LO:TX:a:i:t=allo moderato	!
!LO:TX:t=P:problem:w źródle znaki przykluczowe na wysokościach C- A- D-	!	!	!	!	!LO:TX:a:i:t=allo moderato	!LO:TX:a:i:t=allo moderato	!	!LO:TX:a:i:t=allo moderato	!	!LO:TX:a:i:t=allo moderato	!	!LO:TX:a:t=all(egr)o mod(erato)&colon;	!	!	!	!	!
8E-\	.	p	1.r	.	1.r	1.r	.	1.r	.	8g\L	Lux	8b-\L	Lux	1.r	.	1.r	.
8r	.	.	.	.	.	.	.	.	.	8e-\J	.	8g\J	.	.	.	.	.
8r	.	.	.	.	.	.	.	.	.	8f\	ae-	8a-\	ae-	.	.	.	.
=2	=2	=2	=2	=2	=2	=2	=2	=2	=2	=2	=2	=2	=2	=2	=2	=2	=2
8E-\L	X 5 3	.	.	.	.	.	.	.	.	8.g\L	-ter-	8.b-\L	-ter-	.	.	.	.
8E-\	X 6 4	.	.	.	.	.	.	.	.	.	.	.	.	.	.	.	.
.	.	.	.	.	.	.	.	.	.	16a-\Jk	.	16cc\Jk	.	.	.	.	.
8E-\J	X 5 3	.	.	.	.	.	.	.	.	8g\	-na	8b-\	-na	.	.	.	.
=3	=3	=3	=3	=3	=3	=3	=3	=3	=3	=3	=3	=3	=3	=3	=3	=3	=3
8E-\	.	.	.	.	.	.	.	.	.	8cc\	lu-	8ee-\	lu-	.	.	.	.
8r	.	.	.	.	.	.	.	.	.	8b-\	-ce-	8dd\	-ce-	.	.	.	.
8r	.	.	.	.	.	.	.	.	.	8a-\	-at	8cc\	-at	.	.	.	.
=4	=4	=4	=4	=4	=4	=4	=4	=4	=4	=4	=4	=4	=4	=4	=4	=4	=4
8E-\L	X 5 3	.	.	.	.	.	.	.	.	8.g\L	e-	8.b-\L	e-	.	.	.	.
8E-\	X 4 2	.	.	.	.	.	.	.	.	.	.	.	.	.	.	.	.
.	.	.	.	.	.	.	.	.	.	16f\Jk	.	16a-\Jk	.	.	.	.	.
8E-\J	X 3 1	.	.	.	.	.	.	.	.	8e-\	-is	8g\	-is	.	.	.	.
=5	=5	=5	=5	=5	=5	=5	=5	=5	=5	=5	=5	=5	=5	=5	=5	=5	=5
!	!	!	!	!	!	!	!	!	!	!LO:TUP:a:problem:klamra łukowa, kropka zamiast numeru	!	!LO:TUP:a:problem:klamra łukowa, kropka zamiast numeru	!	!	!	!	!
8E-\	.	.	1.r	.	1.r	1.r	.	1.r	.	24cc\LL	lu-	24ee-\LL	lu-	1.r	.	1.r	.
.	.	.	.	.	.	.	.	.	.	24dd\	.	24ff\	.	.	.	.	.
.	.	.	.	.	.	.	.	.	.	24cc\JJ	.	24ee-\JJ	.	.	.	.	.
!	!	!	!	!	!	!	!	!	!	!LO:TUP:a:problem:klamra łukowa, kropka zamiast numeru	!	!LO:TUP:a:problem:klamra łukowa, kropka zamiast numeru	!	!	!	!	!
8r	.	.	.	.	.	.	.	.	.	24b-\LL	-ce-	24dd\LL	-ce-	.	.	.	.
.	.	.	.	.	.	.	.	.	.	24cc\	.	24ee-\	.	.	.	.	.
.	.	.	.	.	.	.	.	.	.	24b-\JJ	.	24dd\JJ	.	.	.	.	.
!	!	!	!	!	!	!	!	!	!	!LO:TUP:a:problem:klamra łukowa, kropka zamiast numeru	!	!LO:TUP:a:problem:klamra łukowa, kropka zamiast numeru	!	!	!	!	!
8r	.	.	.	.	.	.	.	.	.	24a-\LL	-at	24cc\LL	-at	.	.	.	.
.	.	.	.	.	.	.	.	.	.	24b-\	.	24dd\	.	.	.	.	.
.	.	.	.	.	.	.	.	.	.	24a-\JJ	.	24cc\JJ	.	.	.	.	.
!	!	!	!	!	!	!	!	!	!	!LO:LB:g=original	!	!LO:LB:g=original	!	!	!	!	!
=6	=6	=6	=6	=6	=6	=6	=6	=6	=6	=6	=6	=6	=6	=6	=6	=6	=6
!	!	!	!	!	!	!	!	!	!	!LO:TUP:a:problem:klamra łukowa, kropka zamiast numeru	!	!LO:TUP:a:problem:klamra łukowa, kropka zamiast numeru	!	!	!	!	!
8E-\L	X 5 3	.	.	.	.	.	.	.	.	24g\LL	e-	24b-\LL	e-	.	.	.	.
.	.	.	.	.	.	.	.	.	.	24a-\	.	24cc\	.	.	.	.	.
.	.	.	.	.	.	.	.	.	.	24g\JJ	.	24b-\JJ	.	.	.	.	.
!	!	!	!	!	!	!	!	!	!	!LO:TUP:a:problem:klamra łukowa, kropka zamiast numeru	!	!LO:TUP:a:problem:klamra łukowa, kropka zamiast numeru	!	!	!	!	!
8E-\	X 4 2	.	.	.	.	.	.	.	.	24f\LL	.	24a-\LL	.	.	.	.	.
.	.	.	.	.	.	.	.	.	.	24g\	.	24b-\	.	.	.	.	.
.	.	.	.	.	.	.	.	.	.	24f\JJ	.	24a-\JJ	.	.	.	.	.
8E-\J	X 3 1	.	.	.	.	.	.	.	.	16e-\LL	-is	16g\LL	-is	.	.	.	.
.	.	.	.	.	.	.	.	.	.	16g\JJ	.	16b-\JJ	.	.	.	.	.
=7	=7	=7	=7	=7	=7	=7	=7	=7	=7	=7	=7	=7	=7	=7	=7	=7	=7
8E-\	.	.	.	.	.	.	.	.	.	8g\m	do-	8b-\	do-	.	.	.	.
8r	.	.	.	.	.	.	.	.	.	16a-\LL	.	16cc\LL	.	.	.	.	.
.	.	.	.	.	.	.	.	.	.	16g\JJ	.	16b-\JJ	.	.	.	.	.
8A-\	X 8 6	.	.	.	.	.	.	.	.	16f\LL	-mi-	16a-\LL	-mi-	.	.	.	.
.	X 7 5	.	.	.	.	.	.	.	.	16e-\JJ	.	16g\JJ	.	.	.	.	.
=8	=8	=8	=8	=8	=8	=8	=8	=8	=8	=8	=8	=8	=8	=8	=8	=8	=8
.	.	.	.	.	.	.	.	.	.	8qqe-/	.	8qqg/	.	.	.	.	.
8B-\L	X 5 3	.	.	.	.	.	.	.	.	8d\	-ne	8f/	-ne	.	.	.	.
16B-'\L	.	.	.	.	.	.	.	.	.	8r	.	8r	.	.	.	.	.
16G'\	.	.	.	.	.	.	.	.	.	.	.	.	.	.	.	.	.
16A-'\	.	.	.	.	.	.	.	.	.	8r	.	8r	.	.	.	.	.
16F'\JJ	.	.	.	.	.	.	.	.	.	.	.	.	.	.	.	.	.
=9	=9	=9	=9	=9	=9	=9	=9	=9	=9	=9	=9	=9	=9	=9	=9	=9	=9
!	!	!	!LO:TX:a:i:t=Tutti	!LO:DY:b:t=for	!LO:TX:a:i:t=Tutti	!	!	!LO:TX:a:i:t=Tutti	!	!LO:TX:a:i:t=Tutti	!	!LO:TX:a:i:t=Tutti	!	!	!	!	!
8E-\L	X 5 3	.	8g/L	f	8b-\L	4e-\	Lux	4e-\	Lux	8g\L	Lux	8b-\L	Lux	8g\L	.	8b-\L	.
8E-\	X 3 1	.	8e-/	.	8g\	.	.	.	.	8e-\J	.	8g\J	.	8e-\	.	8g\	.
8E-\J	X 4 2	.	8f/J	.	8a-\J	8e-\	ae-	8e-\	ae-	8f\	ae-	8a-\	ae-	8f\J	.	8a-\J	.
!LO:LB:g=original	!	!	!	!	!	!	!	!	!	!	!	!	!	!	!	!	!
=10	=10	=10	=10	=10	=10	=10	=10	=10	=10	=10	=10	=10	=10	=10	=10	=10	=10
8E-\L	X 5_ 3_	.	8.g/L	.	8.b-\L	4e-\	-ter-	4e-\	-ter-	8.g\L	-ter-	8.b-\L	-ter-	8.g\L	.	8.b-\L	.
8E-\	X 6 4	.	.	.	.	.	.	.	.	.	.	.	.	.	.	.	.
.	.	.	16a-/K	.	16cc\K	.	.	.	.	16a-\Jk	.	16cc\Jk	.	16a-\K	.	16cc\K	.
8E-\J	X 5 3	.	8g/J	.	8b-\J	8E-\	-na	8E-/	-na	8g\	-na	8b-\	-na	8g\J	.	8b-\J	.
=11	=11	=11	=11	=11	=11	=11	=11	=11	=11	=11	=11	=11	=11	=11	=11	=11	=11
8E-\L	X 8 6	.	8cc\L	.	8ee-\L	8e-\	lu-	8e-\	lu-	8cc\	lu-	8ee-\	lu-	4.r	.	4.r	.
8E-\	X 7 5	.	8b-\	.	8dd\	8e-\	-ce-	8e-\	-ce-	8b-\	-ce-	8dd\	-ce-	.	.	.	.
8E-\J	X 6 4	.	8a-\J	.	8cc\J	8e-\	-at	8e-\	-at	8a-\	-at	8cc\	-at	.	.	.	.
=12	=12	=12	=12	=12	=12	=12	=12	=12	=12	=12	=12	=12	=12	=12	=12	=12	=12
8E-\L	X 5 3	.	8.g/L	.	8.b-/L	4e-\	e-	4e-\	e-	8.g\L	e-	8.b-\L	e-	8.g\L	.	8.b-\L	.
8E-\	X 4 2	.	.	.	.	.	.	.	.	.	.	.	.	.	.	.	.
.	.	.	16f/K	.	16a-/K	.	.	.	.	16f\Jk	.	16a-\Jk	.	16f\K	.	16a-\K	.
8E-\J	X 3 1	.	8e-/J	.	8g/J	8E-\	-is	8E-/	-is	8e-\	-is	8g\	-is	8e-\J	.	8g\J	.
!	!	!	!	!	!	!	!	!	!	!	!	!LO:LB:g=original	!	!	!	!	!
=13	=13	=13	=13	=13	=13	=13	=13	=13	=13	=13	=13	=13	=13	=13	=13	=13	=13
!	!	!	!LO:TUP:a:problem:klamra łukowa, kropka zamiast numeru	!	!LO:TUP:a:problem:klamra łukowa, kropka zamiast numeru	!	!	!	!	!	!	!	!	!	!	!	!
8E-\L	X 8 6	.	24cc\LL	.	24ee-\LL	8e-\	lu-	8e-\	lu-	8cc\	lu-	8ee-\	lu-	4.r	.	4.r	.
.	.	.	24dd\	.	24ff\	.	.	.	.	.	.	.	.	.	.	.	.
.	.	.	24cc\JJ	.	24ee-\JJ	.	.	.	.	.	.	.	.	.	.	.	.
!	!	!	!LO:TUP:a:problem:klamra łukowa, kropka zamiast numeru	!	!LO:TUP:a:problem:klamra łukowa, kropka zamiast numeru	!	!	!	!	!	!	!	!	!	!	!	!
8E-\	X 7 5	.	24b-\LL	.	24dd\LL	8e-\	-ce-	8e-\	-ce-	8b-\	-ce-	8dd\	-ce-	.	.	.	.
.	.	.	24cc\	.	24ee-\	.	.	.	.	.	.	.	.	.	.	.	.
.	.	.	24b-\JJ	.	24dd\JJ	.	.	.	.	.	.	.	.	.	.	.	.
!	!	!	!LO:TUP:a:problem:klamra łukowa, kropka zamiast numeru	!	!LO:TUP:a:problem:klamra łukowa, kropka zamiast numeru	!	!	!	!	!	!	!	!	!	!	!	!
8E-\J	X 6 4	.	24a-\LL	.	24cc\LL	8e-\	-at	8e-\	-at	8a-\	-at	8cc\	-at	.	.	.	.
.	.	.	24b-\	.	24dd\	.	.	.	.	.	.	.	.	.	.	.	.
.	.	.	24a-\JJ	.	24cc\JJ	.	.	.	.	.	.	.	.	.	.	.	.
!	!	!	!	!	!	!	!	!	!	!LO:LB:g=original	!	!	!	!	!	!	!
=14	=14	=14	=14	=14	=14	=14	=14	=14	=14	=14	=14	=14	=14	=14	=14	=14	=14
8E-\	X 5 3	.	8g/L	.	16b-\LL	8e-\	e-	8e-\	e-	8g\	e-	8b-\	e-	8g\	.	8b-\	.
.	.	.	.	.	16ee-\	.	.	.	.	.	.	.	.	.	.	.	.
8r	.	.	8e-/J	.	16gg\	8E-/	-is	8E-/	-is	8g\	-is	8b-\	-is	8r	.	8r	.
.	.	.	.	.	16ee-\	.	.	.	.	.	.	.	.	.	.	.	.
8r	.	.	8r	.	16dd\	8r	.	8r	.	8r	.	8r	.	8r	.	8r	.
.	.	.	.	.	16ee-\JJ	.	.	.	.	.	.	.	.	.	.	.	.
!	!	!	!LO:LB:g=original	!	!	!LO:LB:g=original	!	!LO:LB:g=original	!	!	!	!	!	!	!	!	!
=15	=15	=15	=15	=15	=15	=15	=15	=15	=15	=15	=15	=15	=15	=15	=15	=15	=15
!	!	!	!LO:TX:t=P:problem:mixed beam	!	!	!	!	!	!	!	!	!	!	!	!	!	!
8r	.	.	16d/LL	.	16b-\LL	4D\	do-	8B-\L	do-	8r	.	8b-\L	do-	8r	.	8r	.
.	.	.	16b-\	.	16ff\	.	.	.	.	.	.	.	.	.	.	.	.
8D\L	X 6 5	.	16gg\	.	16bb-\	.	.	8f\J	.	8b-\	do-	8aa-\J	.	8f\L	.	8a-\L	.
.	.	.	16ff\	.	16aa-\	.	.	.	.	.	.	.	.	.	.	.	.
8E-\J	X X 3	.	16ff\	.	16aa-\	8E-\	-mi-	8e-\	-mi-	8b-\	-mi-	8gg\	-mi-	8e-\J	.	8g\J	.
.	.	.	16ee-\JJ	.	16gg\JJ	.	.	.	.	.	.	.	.	.	.	.	.
!	!	!	!	!	!LO:LB:g=original	!	!	!	!	!	!	!	!	!	!	!	!
=16	=16	=16	=16	=16	=16	=16	=16	=16	=16	=16	=16	=16	=16	=16	=16	=16	=16
!LO:TX:t=P:problem:mixed beam	!	!	!	!	!	!	!	!	!	!	!	!	!	!	!	!	!
.	.	.	.	.	.	.	.	8qqe-/	.	.	.	8qqgg/	.	.	.	.	.
!	!	!	!LO:TX:a:t=t	!	!	!	!	!	!	!	!	!	!	!	!	!	!
8B-\L	X 6 4	.	8ee-\L	.	8gg\L	4BB-/	-ne	4d\	-ne	4b-\	-ne	4ff\	-ne	8e-\L	.	8g\L	.
8BB-/J	X 5 3	.	8dd\J	.	8ff\J	.	.	.	.	.	.	.	.	8B-\J	.	8f\J	.
8r	.	.	8r	.	8r	8r	.	8r	.	8r	.	8r	.	8r	.	8r	.
!	!	!	!	!	!	!	!	!	!	!	!	!	!	!	!	!LO:LB:g=original	!
=17	=17	=17	=17	=17	=17	=17	=17	=17	=17	=17	=17	=17	=17	=17	=17	=17	=17
*	*	*	*tremolo	*	*	*	*	*	*	*	*	*	*	*	*	*	*
*	*	*	*	*	*tremolo	*	*	*	*	*	*	*	*	*	*	*	*
!	!	!	!LO:TX:t=P:problem:tremolo 32 - zapisana 4=8, zapisana 2=4, zapisana 2.=4.:global	!	!LO:TX:t=P:problem:tremolo 32 - zapisana 4=8, zapisana 2=4, zapisana 2.=4.:global	!	!	!	!	!	!	!	!	!	!	!	!
4.B-\	X 5 3	.	64dd\L	.	64ff\L	4.B-\	cum	4.d\	cum	4.b-\	Cum	4.ff\	cum	4.B-/	.	4.f\	.
.	.	.	64dd\	.	64ff\	.	.	.	.	.	.	.	.	.	.	.	.
.	.	.	64dd\	.	64ff\	.	.	.	.	.	.	.	.	.	.	.	.
.	.	.	64dd\	.	64ff\	.	.	.	.	.	.	.	.	.	.	.	.
.	.	.	64dd\	.	64ff\	.	.	.	.	.	.	.	.	.	.	.	.
.	.	.	64dd\	.	64ff\	.	.	.	.	.	.	.	.	.	.	.	.
.	.	.	64dd\	.	64ff\	.	.	.	.	.	.	.	.	.	.	.	.
.	.	.	64dd\J	.	64ff\J	.	.	.	.	.	.	.	.	.	.	.	.
.	.	.	64ff\L	.	64dd\L	.	.	.	.	.	.	.	.	.	.	.	.
.	.	.	64ff\	.	64dd\	.	.	.	.	.	.	.	.	.	.	.	.
.	.	.	64ff\	.	64dd\	.	.	.	.	.	.	.	.	.	.	.	.
.	.	.	64ff\	.	64dd\	.	.	.	.	.	.	.	.	.	.	.	.
.	.	.	64ff\	.	64dd\	.	.	.	.	.	.	.	.	.	.	.	.
.	.	.	64ff\	.	64dd\	.	.	.	.	.	.	.	.	.	.	.	.
.	.	.	64ff\	.	64dd\	.	.	.	.	.	.	.	.	.	.	.	.
.	.	.	64ff\J	.	64dd\J	.	.	.	.	.	.	.	.	.	.	.	.
.	.	.	64ff\L	.	64b-\L	.	.	.	.	.	.	.	.	.	.	.	.
.	.	.	64ff\	.	64b-\	.	.	.	.	.	.	.	.	.	.	.	.
.	.	.	64ff\	.	64b-\	.	.	.	.	.	.	.	.	.	.	.	.
.	.	.	64ff\	.	64b-\	.	.	.	.	.	.	.	.	.	.	.	.
.	.	.	64ff\	.	64b-\	.	.	.	.	.	.	.	.	.	.	.	.
.	.	.	64ff\	.	64b-\	.	.	.	.	.	.	.	.	.	.	.	.
.	.	.	64ff\	.	64b-\	.	.	.	.	.	.	.	.	.	.	.	.
.	.	.	64ff\J	.	64b-\J	.	.	.	.	.	.	.	.	.	.	.	.
!	!	!	!	!	!	!	!	!	!	!	!	!	!	!LO:LB:g=original	!	!	!
=18	=18	=18	=18	=18	=18	=18	=18	=18	=18	=18	=18	=18	=18	=18	=18	=18	=18
!	!	!	!	!	!	!	!	!LO:N:vis=4.	!	!	!	!	!	!	!	!	!
4.B-\	X 6 4	.	64ee-\L	.	64gg\L	4B-\	San-	4e-\	San-	4b-\	San-	4gg\	San-	4.e-\	.	4.g\	.
.	.	.	64ee-\	.	64gg\	.	.	.	.	.	.	.	.	.	.	.	.
.	.	.	64ee-\	.	64gg\	.	.	.	.	.	.	.	.	.	.	.	.
.	.	.	64ee-\	.	64gg\	.	.	.	.	.	.	.	.	.	.	.	.
.	.	.	64ee-\	.	64gg\	.	.	.	.	.	.	.	.	.	.	.	.
.	.	.	64ee-\	.	64gg\	.	.	.	.	.	.	.	.	.	.	.	.
.	.	.	64ee-\	.	64gg\	.	.	.	.	.	.	.	.	.	.	.	.
.	.	.	64ee-\J	.	64gg\J	.	.	.	.	.	.	.	.	.	.	.	.
.	.	.	64gg\L	.	64ee-\L	.	.	.	.	.	.	.	.	.	.	.	.
.	.	.	64gg\	.	64ee-\	.	.	.	.	.	.	.	.	.	.	.	.
.	.	.	64gg\	.	64ee-\	.	.	.	.	.	.	.	.	.	.	.	.
.	.	.	64gg\	.	64ee-\	.	.	.	.	.	.	.	.	.	.	.	.
.	.	.	64gg\	.	64ee-\	.	.	.	.	.	.	.	.	.	.	.	.
.	.	.	64gg\	.	64ee-\	.	.	.	.	.	.	.	.	.	.	.	.
.	.	.	64gg\	.	64ee-\	.	.	.	.	.	.	.	.	.	.	.	.
.	.	.	64gg\J	.	64ee-\J	.	.	.	.	.	.	.	.	.	.	.	.
.	.	.	64gg\L	.	64b-\L	8B-\	-ctis	8e-\	-ctis	8b-\	-ctis	8gg\	-ctis	.	.	.	.
.	.	.	64gg\	.	64b-\	.	.	.	.	.	.	.	.	.	.	.	.
.	.	.	64gg\	.	64b-\	.	.	.	.	.	.	.	.	.	.	.	.
.	.	.	64gg\	.	64b-\	.	.	.	.	.	.	.	.	.	.	.	.
.	.	.	64gg\	.	64b-\	.	.	.	.	.	.	.	.	.	.	.	.
.	.	.	64gg\	.	64b-\	.	.	.	.	.	.	.	.	.	.	.	.
.	.	.	64gg\	.	64b-\	.	.	.	.	.	.	.	.	.	.	.	.
.	.	.	64gg\J	.	64b-\J	.	.	.	.	.	.	.	.	.	.	.	.
=19	=19	=19	=19	=19	=19	=19	=19	=19	=19	=19	=19	=19	=19	=19	=19	=19	=19
4.B-\	X 7 5	.	64ff\L	.	64aa-\L	4.B-\	tu-	4.f\	tu-	4.b-\	tu-	4.aa-\	tu-	4.f\	.	4.a-\	.
.	.	.	64ff\	.	64aa-\	.	.	.	.	.	.	.	.	.	.	.	.
.	.	.	64ff\	.	64aa-\	.	.	.	.	.	.	.	.	.	.	.	.
.	.	.	64ff\	.	64aa-\	.	.	.	.	.	.	.	.	.	.	.	.
.	.	.	64ff\	.	64aa-\	.	.	.	.	.	.	.	.	.	.	.	.
.	.	.	64ff\	.	64aa-\	.	.	.	.	.	.	.	.	.	.	.	.
.	.	.	64ff\	.	64aa-\	.	.	.	.	.	.	.	.	.	.	.	.
.	.	.	64ff\J	.	64aa-\J	.	.	.	.	.	.	.	.	.	.	.	.
*	*	*	*2\right	*	*	*	*	*	*	*	*	*	*	*	*	*	*
!	!	!	!LO:N:vis=2	!	!	!	!	!	!	!	!	!	!	!	!	!	!
.	.	.	32aa-\LLL	.	64ff\L	.	.	.	.	.	.	.	.	.	.	.	.
.	.	.	.	.	64ff\	.	.	.	.	.	.	.	.	.	.	.	.
.	.	.	32aa-\	.	64ff\	.	.	.	.	.	.	.	.	.	.	.	.
.	.	.	.	.	64ff\	.	.	.	.	.	.	.	.	.	.	.	.
.	.	.	32aa-\	.	64ff\	.	.	.	.	.	.	.	.	.	.	.	.
.	.	.	.	.	64ff\	.	.	.	.	.	.	.	.	.	.	.	.
.	.	.	32aa-\	.	64ff\	.	.	.	.	.	.	.	.	.	.	.	.
.	.	.	.	.	64ff\J	.	.	.	.	.	.	.	.	.	.	.	.
.	.	.	32aa-\	.	64b-\L	.	.	.	.	.	.	.	.	.	.	.	.
.	.	.	.	.	64b-\	.	.	.	.	.	.	.	.	.	.	.	.
.	.	.	32aa-\	.	64b-\	.	.	.	.	.	.	.	.	.	.	.	.
.	.	.	.	.	64b-\	.	.	.	.	.	.	.	.	.	.	.	.
.	.	.	32aa-\	.	64b-\	.	.	.	.	.	.	.	.	.	.	.	.
.	.	.	.	.	64b-\	.	.	.	.	.	.	.	.	.	.	.	.
.	.	.	32aa-\JJJ	.	64b-\	.	.	.	.	.	.	.	.	.	.	.	.
.	.	.	.	.	64b-\J	.	.	.	.	.	.	.	.	.	.	.	.
=20	=20	=20	=20	=20	=20	=20	=20	=20	=20	=20	=20	=20	=20	=20	=20	=20	=20
8E-\	.	.	8gg\	.	16gg\LL|>	8E-\	-is	8e-\	-is	8b-\	-is	8gg\	-is	8e-\	.	8g\	.
.	.	.	.	.	16ee-\|>	.	.	.	.	.	.	.	.	.	.	.	.
8r	.	.	8r	.	16b-\|>	8r	.	8r	.	8r	.	8r	.	8r	.	8r	.
.	.	.	.	.	16g\JJ|>	.	.	.	.	.	.	.	.	.	.	.	.
8r	.	.	8r	.	8e-/|>	8r	.	8r	.	8r	.	8r	.	8r	.	8r	.
=21	=21	=21	=21	=21	=21	=21	=21	=21	=21	=21	=21	=21	=21	=21	=21	=21	=21
4.c\	X X n	.	64een\L	.	64gg\L	4.c\	cum	4.en\	cum	4.cc\	cum	4.gg\	cum	1.r	.	1.r	.
.	.	.	64een\	.	64gg\	.	.	.	.	.	.	.	.	.	.	.	.
.	.	.	64een\	.	64gg\	.	.	.	.	.	.	.	.	.	.	.	.
.	.	.	64een\	.	64gg\	.	.	.	.	.	.	.	.	.	.	.	.
.	.	.	64een\	.	64gg\	.	.	.	.	.	.	.	.	.	.	.	.
.	.	.	64een\	.	64gg\	.	.	.	.	.	.	.	.	.	.	.	.
.	.	.	64een\	.	64gg\	.	.	.	.	.	.	.	.	.	.	.	.
.	.	.	64een\J	.	64gg\J	.	.	.	.	.	.	.	.	.	.	.	.
!	!	!	!LO:N:vis=2	!	!	!	!	!	!	!	!	!	!	!	!	!	!
.	.	.	32gg\LLL	.	64een\L	.	.	.	.	.	.	.	.	.	.	.	.
.	.	.	.	.	64een\	.	.	.	.	.	.	.	.	.	.	.	.
.	.	.	32gg\	.	64een\	.	.	.	.	.	.	.	.	.	.	.	.
.	.	.	.	.	64een\	.	.	.	.	.	.	.	.	.	.	.	.
.	.	.	32gg\	.	64een\	.	.	.	.	.	.	.	.	.	.	.	.
.	.	.	.	.	64een\	.	.	.	.	.	.	.	.	.	.	.	.
.	.	.	32gg\	.	64een\	.	.	.	.	.	.	.	.	.	.	.	.
.	.	.	.	.	64een\J	.	.	.	.	.	.	.	.	.	.	.	.
.	.	.	32gg\	.	64cc\L	.	.	.	.	.	.	.	.	.	.	.	.
.	.	.	.	.	64cc\	.	.	.	.	.	.	.	.	.	.	.	.
.	.	.	32gg\	.	64cc\	.	.	.	.	.	.	.	.	.	.	.	.
.	.	.	.	.	64cc\	.	.	.	.	.	.	.	.	.	.	.	.
.	.	.	32gg\	.	64cc\	.	.	.	.	.	.	.	.	.	.	.	.
.	.	.	.	.	64cc\	.	.	.	.	.	.	.	.	.	.	.	.
.	.	.	32gg\JJJ	.	64cc\	.	.	.	.	.	.	.	.	.	.	.	.
.	.	.	.	.	64cc\J	.	.	.	.	.	.	.	.	.	.	.	.
!LO:LB:g=original	!	!	!	!	!	!	!	!	!	!	!	!LO:LB:g=original	!	!	!	!	!
=22	=22	=22	=22	=22	=22	=22	=22	=22	=22	=22	=22	=22	=22	=22	=22	=22	=22
!	!	!	!	!	!	!	!	!LO:N:vis=4.	!	!	!	!	!	!	!	!	!
4.c\	X 6n 4	.	64ff\L	.	64aa-\L	4c\	San-	4f\	San-	4cc\	San-	4aan\	San-	.	.	.	.
.	.	.	64ff\	.	64aa-\	.	.	.	.	.	.	.	.	.	.	.	.
.	.	.	64ff\	.	64aa-\	.	.	.	.	.	.	.	.	.	.	.	.
.	.	.	64ff\	.	64aa-\	.	.	.	.	.	.	.	.	.	.	.	.
.	.	.	64ff\	.	64aa-\	.	.	.	.	.	.	.	.	.	.	.	.
.	.	.	64ff\	.	64aa-\	.	.	.	.	.	.	.	.	.	.	.	.
.	.	.	64ff\	.	64aa-\	.	.	.	.	.	.	.	.	.	.	.	.
.	.	.	64ff\J	.	64aa-\J	.	.	.	.	.	.	.	.	.	.	.	.
!	!	!	!LO:N:vis=2	!	!	!	!	!	!	!	!	!	!	!	!	!	!
.	.	.	32aan\LLL	.	64ff\L	.	.	.	.	.	.	.	.	.	.	.	.
.	.	.	.	.	64ff\	.	.	.	.	.	.	.	.	.	.	.	.
.	.	.	32aan\	.	64ff\	.	.	.	.	.	.	.	.	.	.	.	.
.	.	.	.	.	64ff\	.	.	.	.	.	.	.	.	.	.	.	.
.	.	.	32aan\	.	64ff\	.	.	.	.	.	.	.	.	.	.	.	.
.	.	.	.	.	64ff\	.	.	.	.	.	.	.	.	.	.	.	.
.	.	.	32aan\	.	64ff\	.	.	.	.	.	.	.	.	.	.	.	.
.	.	.	.	.	64ff\J	.	.	.	.	.	.	.	.	.	.	.	.
.	.	.	32aan\	.	64cc\L	8c\	-ctis	8f\	-ctis	8cc\	-ctis	8aa\	-ctis	.	.	.	.
.	.	.	.	.	64cc\	.	.	.	.	.	.	.	.	.	.	.	.
.	.	.	32aan\	.	64cc\	.	.	.	.	.	.	.	.	.	.	.	.
.	.	.	.	.	64cc\	.	.	.	.	.	.	.	.	.	.	.	.
.	.	.	32aan\	.	64cc\	.	.	.	.	.	.	.	.	.	.	.	.
.	.	.	.	.	64cc\	.	.	.	.	.	.	.	.	.	.	.	.
.	.	.	32aan\JJJ	.	64cc\	.	.	.	.	.	.	.	.	.	.	.	.
.	.	.	.	.	64cc\J	.	.	.	.	.	.	.	.	.	.	.	.
=23	=23	=23	=23	=23	=23	=23	=23	=23	=23	=23	=23	=23	=23	=23	=23	=23	=23
4.c\	X 7 5	.	64gg\L	.	64bb-\L	4.c\	tu-	4.g\	tu-	4.cc\	tu-	4.bb-\	tu-	.	.	.	.
.	.	.	64gg\	.	64bb-\	.	.	.	.	.	.	.	.	.	.	.	.
.	.	.	64gg\	.	64bb-\	.	.	.	.	.	.	.	.	.	.	.	.
.	.	.	64gg\	.	64bb-\	.	.	.	.	.	.	.	.	.	.	.	.
.	.	.	64gg\	.	64bb-\	.	.	.	.	.	.	.	.	.	.	.	.
.	.	.	64gg\	.	64bb-\	.	.	.	.	.	.	.	.	.	.	.	.
.	.	.	64gg\	.	64bb-\	.	.	.	.	.	.	.	.	.	.	.	.
.	.	.	64gg\J	.	64bb-\J	.	.	.	.	.	.	.	.	.	.	.	.
!	!	!	!LO:N:vis=2	!	!	!	!	!	!	!	!	!	!	!	!	!	!
.	.	.	32bb-\LLL	.	64gg\L	.	.	.	.	.	.	.	.	.	.	.	.
.	.	.	.	.	64gg\	.	.	.	.	.	.	.	.	.	.	.	.
.	.	.	32bb-\	.	64gg\	.	.	.	.	.	.	.	.	.	.	.	.
.	.	.	.	.	64gg\	.	.	.	.	.	.	.	.	.	.	.	.
.	.	.	32bb-\	.	64gg\	.	.	.	.	.	.	.	.	.	.	.	.
.	.	.	.	.	64gg\	.	.	.	.	.	.	.	.	.	.	.	.
.	.	.	32bb-\	.	64gg\	.	.	.	.	.	.	.	.	.	.	.	.
.	.	.	.	.	64gg\J	.	.	.	.	.	.	.	.	.	.	.	.
.	.	.	32bb-\	.	64cc\L	.	.	.	.	.	.	.	.	.	.	.	.
.	.	.	.	.	64cc\	.	.	.	.	.	.	.	.	.	.	.	.
.	.	.	32bb-\	.	64cc\	.	.	.	.	.	.	.	.	.	.	.	.
.	.	.	.	.	64cc\	.	.	.	.	.	.	.	.	.	.	.	.
.	.	.	32bb-\	.	64cc\	.	.	.	.	.	.	.	.	.	.	.	.
.	.	.	.	.	64cc\	.	.	.	.	.	.	.	.	.	.	.	.
.	.	.	32bb-\JJJ	.	64cc\	.	.	.	.	.	.	.	.	.	.	.	.
.	.	.	.	.	64cc\J	.	.	.	.	.	.	.	.	.	.	.	.
*	*	*	*Xtremolo	*	*	*	*	*	*	*	*	*	*	*	*	*	*
!	!	!	!LO:LB:g=original	!	!	!	!	!	!	!	!	!	!	!	!	!	!
=24	=24	=24	=24	=24	=24	=24	=24	=24	=24	=24	=24	=24	=24	=24	=24	=24	=24
8F\	X X n	.	8aan\	.	16aan'\LL	8F\	-is	8f\	-is	8cc\	-is	8aan\	-is	.	.	.	.
.	.	.	.	.	16ff'\	.	.	.	.	.	.	.	.	.	.	.	.
8r	.	.	8r	.	16cc'\	8r	.	8r	.	8r	.	8r	.	.	.	.	.
.	.	.	.	.	16any'\JJ	.	.	.	.	.	.	.	.	.	.	.	.
8r	.	.	8r	.	8f/|>	8r	.	8r	.	8r	.	8r	.	.	.	.	.
!	!	!	!	!	!LO:LB:g=original	!	!	!	!	!LO:LB:g=original	!	!	!	!	!	!	!
=25	=25	=25	=25	=25	=25	=25	=25	=25	=25	=25	=25	=25	=25	=25	=25	=25	=25
8An\L	X X 5	.	8fL 8c/	.	8ee-\L	8An\L	in	4.F/	in	4.cc\	in	4.ee-\	in	8f\L	.	8f\L	.
8F\	.	.	8f 8c/	.	16ccc\L	8F\J	.	.	.	.	.	.	.	8f\	.	8f\	.
.	.	.	.	.	16aan\	.	.	.	.	.	.	.	.	.	.	.	.
8A\J	.	.	8fJ 8c/	.	16ff\	8A\	ae-	.	.	.	.	.	.	8f\J	.	8f\J	.
.	.	.	.	.	16ee-\JJ	.	.	.	.	.	.	.	.	.	.	.	.
!	!	!	!	!	!	!LO:LB:g=original	!	!	!	!	!	!	!	!	!	!	!
=26	=26	=26	=26	=26	=26	=26	=26	=26	=26	=26	=26	=26	=26	=26	=26	=26	=26
!LO:TX:t=P:problem:mixed beam	!	!	!	!	!	!	!	!	!	!	!	!	!	!	!	!	!
8B-\L	.	.	8fL 8d/	.	(>16dd\LL	8B-\	-ter-	4.F/	ae-	4.b-\	ae-	4.dd\	ae-	8B-/	.	8f\	.
.	.	.	.	.	16bb-\)	.	.	.	.	.	.	.	.	.	.	.	.
8BB-/J	.	.	8f 8d/	.	(>16ff\	8BB-/	-num	.	.	.	.	.	.	8r	.	8r	.
.	.	.	.	.	16ddd\JJ)	.	.	.	.	.	.	.	.	.	.	.	.
8r	.	.	8fJ 8d/	.	8bb-\	8r	.	.	.	.	.	.	.	8r	.	8r	.
!	!	!	!	!	!	!	!	!LO:LB:g=original	!	!	!	!	!	!	!	!	!
=27	=27	=27	=27	=27	=27	=27	=27	=27	=27	=27	=27	=27	=27	=27	=27	=27	=27
8An\L	X X 5	.	8fL 8c/	.	8ee-\L	8An\L	in	4.F/	-ter-	4.cc\	-ter-	4.ee-\	-ter-	4.f\	.	4.f\	.
8F\	.	.	8f 8c/	.	16ccc\L	8F\J	.	.	.	.	.	.	.	.	.	.	.
.	.	.	.	.	16aan\	.	.	.	.	.	.	.	.	.	.	.	.
8A\J	.	.	8fJ 8c/	.	16ff\	8A\	ae-	.	.	.	.	.	.	.	.	.	.
.	.	.	.	.	16ee-\JJ	.	.	.	.	.	.	.	.	.	.	.	.
=28	=28	=28	=28	=28	=28	=28	=28	=28	=28	=28	=28	=28	=28	=28	=28	=28	=28
!LO:TX:t=P:problem:mixed beam	!	!	!	!	!	!	!	!	!	!	!	!	!	!	!	!	!
8B-\L	.	.	8fL 8d/	.	(>16dd\LL	8B-\	-ter-	4.F/	-num	4.b-\	-num	4.dd\	-num	8B-/	.	8f\	.
.	.	.	.	.	16bb-\)	.	.	.	.	.	.	.	.	.	.	.	.
8BB-/J	.	.	8f 8d/	.	16ff\	8BB-/	-num	.	.	.	.	.	.	8r	.	8r	.
.	.	.	.	.	16ddd\JJ	.	.	.	.	.	.	.	.	.	.	.	.
8r	.	.	8fJ 8d/	.	8bb-\	8r	.	.	.	.	.	.	.	8r	.	8r	.
=29	=29	=29	=29	=29	=29	=29	=29	=29	=29	=29	=29	=29	=29	=29	=29	=29	=29
8E-\	.	.	8ee-\L	.	8gg\L	2.r	.	2.r	.	2.r	.	2.r	.	2.r	.	2.r	.
8r	.	.	8cc\	.	8aan\	.	.	.	.	.	.	.	.	.	.	.	.
8r	.	.	8dd\J	.	8bb-\J	.	.	.	.	.	.	.	.	.	.	.	.
=30	=30	=30	=30	=30	=30	=30	=30	=30	=30	=30	=30	=30	=30	=30	=30	=30	=30
*	*	*	*^	*	*	*	*	*	*	*	*	*	*	*	*	*	*
4.r	.	.	8an/L	4.f\	.	8cc\L	.	.	.	.	.	.	.	.	.	.	.	.
.	.	.	8b-/	.	.	8dd\	.	.	.	.	.	.	.	.	.	.	.	.
.	.	.	8cc/J	.	.	8ee-\J	.	.	.	.	.	.	.	.	.	.	.	.
*	*	*	*v	*v	*	*	*	*	*	*	*	*	*	*	*	*	*	*
=31	=31	=31	=31	=31	=31	=31	=31	=31	=31	=31	=31	=31	=31	=31	=31	=31	=31
8F\L	X 6_ 4_	.	4b-\	.	8dd\Lm	4F\	qui-	4f\	qui-	4b-\	qui-	4dd\	qui-	8f\L	.	8f\L	.
8F\	.	.	.	.	16ff\L	.	.	.	.	.	.	.	.	8f\	.	8f\	.
.	.	.	.	.	16dd\	.	.	.	.	.	.	.	.	.	.	.	.
8F\J	.	.	8dd\	.	16cc\	8F\	-a	8f\	-a	8b-\	-a	8dd\	-a	8f\J	.	8f\J	.
.	.	.	.	.	16b-\JJ	.	.	.	.	.	.	.	.	.	.	.	.
=32	=32	=32	=32	=32	=32	=32	=32	=32	=32	=32	=32	=32	=32	=32	=32	=32	=32
8FF/L	X 5_ n_	.	4an\	.	8cc\LM	4F\	pi-	4F/	pi-	4an\	pi-	4cc\	pi-	8f\L	.	8f\L	.
8FF/	.	.	.	.	16ee-\L	.	.	.	.	.	.	.	.	8f\	.	8f\	.
.	.	.	.	.	16cc\	.	.	.	.	.	.	.	.	.	.	.	.
8FF/J	X X X	.	8cc\	.	16b-\	8FF/	-us	8F/	-us	8a\	-us	8cc\	-us	8f\J	.	8f\J	.
.	.	.	.	.	16a-\JJ	.	.	.	.	.	.	.	.	.	.	.	.
*	*	*	*	*	*Xtremolo	*	*	*	*	*	*	*	*	*	*	*	*
!	!	!	!LO:LB:g=original	!	!	!	!	!	!	!	!	!	!	!	!	!	!
=33	=33	=33	=33	=33	=33	=33	=33	=33	=33	=33	=33	=33	=33	=33	=33	=33	=33
8BB-/	.	.	8b- 8d/	.	8b-\L	8BB-/	es	8F/	es	8b-\	es.	8dd\	es.	8B-/	.	8f\	.
8r	.	.	8r	.	8ff'\	8r	.	8r	.	8r	.	8r	.	8r	.	8r	.
8r	.	.	8r	.	8ff'\J	8r	.	8r	.	8r	.	8r	.	8r	.	8r	.
!	!	!	!	!	!LO:LB:g=original	!	!	!	!	!	!	!LO:LB:g=original	!	!	!	!	!
!	!	!	!	!	!	!	!	!	!	!	!	!	!	!LO:LB:g=original	!	!	!
=34	=34	=34	=34	=34	=34	=34	=34	=34	=34	=34	=34	=34	=34	=34	=34	=34	=34
!	!	!LO:DY:b:t=pia&colon;	!	!LO:DY:b:t=pia	!LO:TX:a:i:t=dolce	!	!	!	!	!	!	!	!	!	!	!LO:TX:a:t=19.	!
4.AAn/	X 6 5	p	8c/L	p	16ff\LL	1.r	.	1.r	.	1.r	.	1.r	.	1.r	.	1.r	.
.	.	.	.	.	16ee-\	.	.	.	.	.	.	.	.	.	.	.	.
.	.	.	8f 8c/	.	(>16cc\	.	.	.	.	.	.	.	.	.	.	.	.
.	.	.	.	.	16an\JJ	.	.	.	.	.	.	.	.	.	.	.	.
.	.	.	8fJ 8c/	.	16f/LL)	.	.	.	.	.	.	.	.	.	.	.	.
.	.	.	.	.	16e-/JJ	.	.	.	.	.	.	.	.	.	.	.	.
=35	=35	=35	=35	=35	=35	=35	=35	=35	=35	=35	=35	=35	=35	=35	=35	=35	=35
8BB-/	.	.	8f 8d/	.	16d/LL	.	.	.	.	.	.	.	.	.	.	.	.
.	.	.	.	.	16f/	.	.	.	.	.	.	.	.	.	.	.	.
8r	.	.	8r	.	16b-/	.	.	.	.	.	.	.	.	.	.	.	.
.	.	.	.	.	16dd/JJ	.	.	.	.	.	.	.	.	.	.	.	.
8r	.	.	8r	.	16ff\LL	.	.	.	.	.	.	.	.	.	.	.	.
.	.	.	.	.	16ff\JJ	.	.	.	.	.	.	.	.	.	.	.	.
!LO:LB:g=original	!	!	!	!	!	!	!	!	!	!	!	!	!	!	!	!	!
=36	=36	=36	=36	=36	=36	=36	=36	=36	=36	=36	=36	=36	=36	=36	=36	=36	=36
4.An\	X 6 5	.	8c/L	.	16ff\LL	.	.	.	.	.	.	.	.	.	.	.	.
.	.	.	.	.	16ee-\	.	.	.	.	.	.	.	.	.	.	.	.
.	.	.	8f 8c/	.	(>16cc\	.	.	.	.	.	.	.	.	.	.	.	.
.	.	.	.	.	16an\)	.	.	.	.	.	.	.	.	.	.	.	.
.	.	.	8fJ 8c/	.	16f\	.	.	.	.	.	.	.	.	.	.	.	.
.	.	.	.	.	16e-\JJ	.	.	.	.	.	.	.	.	.	.	.	.
=37	=37	=37	=37	=37	=37	=37	=37	=37	=37	=37	=37	=37	=37	=37	=37	=37	=37
8B-\	.	.	8f 8d/	.	16d/LL	.	.	.	.	.	.	.	.	.	.	.	.
.	.	.	.	.	16f/	.	.	.	.	.	.	.	.	.	.	.	.
8r	.	.	8r	.	16b-/	.	.	.	.	.	.	.	.	.	.	.	.
.	.	.	.	.	16dd/JJ	.	.	.	.	.	.	.	.	.	.	.	.
8D\	X 6 5-	.	8b-\	.	16ff\LL	.	.	.	.	.	.	.	.	.	.	.	.
.	.	.	.	.	16aa-X\JJ	.	.	.	.	.	.	.	.	.	.	.	.
=38	=38	=38	=38	=38	=38	=38	=38	=38	=38	=38	=38	=38	=38	=38	=38	=38	=38
8E-\L	.	.	8b-/L	.	(>16ff#X\LL	1.r	.	1.r	.	1.r	.	1.r	.	1.r	.	1.r	.
.	.	.	.	.	16gg\	.	.	.	.	.	.	.	.	.	.	.	.
8E-\	.	.	16b-/L	.	16gg\)	.	.	.	.	.	.	.	.	.	.	.	.
.	.	.	16g/JJ	.	16bb-\JJ	.	.	.	.	.	.	.	.	.	.	.	.
8C\J	.	.	8e-/	.	16aan\LL	.	.	.	.	.	.	.	.	.	.	.	.
.	.	.	.	.	16ccc\JJ	.	.	.	.	.	.	.	.	.	.	.	.
=39	=39	=39	=39	=39	=39	=39	=39	=39	=39	=39	=39	=39	=39	=39	=39	=39	=39
8D\	X X 6	.	16d/LL	.	8bb-\LM	.	.	.	.	.	.	.	.	.	.	.	.
.	.	.	16f/J	.	.	.	.	.	.	.	.	.	.	.	.	.	.
8r	.	.	8f/	.	16ddd\L	.	.	.	.	.	.	.	.	.	.	.	.
.	.	.	.	.	16bb-\JJ	.	.	.	.	.	.	.	.	.	.	.	.
8D\	X X 6	.	[>8b-/J	.	8ff\	.	.	.	.	.	.	.	.	.	.	.	.
=40	=40	=40	=40	=40	=40	=40	=40	=40	=40	=40	=40	=40	=40	=40	=40	=40	=40
!LO:TX:t=P:problem:mixed beam	!	!	!	!	!	!	!	!	!	!	!	!	!	!	!	!	!
8E-\L	.	.	4b-\]	.	(>16ff\LL	.	.	.	.	.	.	.	.	.	.	.	.
.	.	.	.	.	16ee-\	.	.	.	.	.	.	.	.	.	.	.	.
8F\	X X 4	.	.	.	16gg\	.	.	.	.	.	.	.	.	.	.	.	.
.	.	.	.	.	16ee-\JJ)	.	.	.	.	.	.	.	.	.	.	.	.
!	!	!	!	!	!LO:N:vis=8	!	!	!	!	!	!	!	!	!	!	!	!
8FF/J	X X n	.	8an\	.	16dd\LL	.	.	.	.	.	.	.	.	.	.	.	.
!	!	!	!	!	!LO:N:vis=8	!	!	!	!	!	!	!	!	!	!	!	!
!	!	!	!	!	!LO:TX:a:t=t	!	!	!	!	!	!	!	!	!	!	!	!
.	.	.	.	.	16cc\JJ	.	.	.	.	.	.	.	.	.	.	.	.
=41	=41	=41	=41	=41	=41	=41	=41	=41	=41	=41	=41	=41	=41	=41	=41	=41	=41
8BB-/	.	.	8b-\L	.	8dd\L	.	.	.	.	.	.	.	.	.	.	.	.
8r	.	.	16gg\L	.	16bb-\L	.	.	.	.	.	.	.	.	.	.	.	.
.	.	.	16ff\	.	16aan\	.	.	.	.	.	.	.	.	.	.	.	.
8D\	.	.	16ee-\	.	16gg\	.	.	.	.	.	.	.	.	.	.	.	.
.	.	.	16dd\JJ	.	16ff\JJ	.	.	.	.	.	.	.	.	.	.	.	.
!	!	!	!LO:LB:g=original	!	!LO:LB:g=original	!	!	!	!	!	!	!	!	!	!	!	!
=42	=42	=42	=42	=42	=42	=42	=42	=42	=42	=42	=42	=42	=42	=42	=42	=42	=42
!LO:TX:t=P:problem:mixed beam	!	!	!	!	!	!	!	!	!	!	!	!	!	!	!	!	!
8E-\L	.	.	16dd\LL	.	16ff\LL	2.r	.	2.r	.	1.r	.	1.r	.	1.r	.	1.r	.
.	.	.	16cc\JJ	.	16ee-\JJ	.	.	.	.	.	.	.	.	.	.	.	.
8F\	.	.	8b-\L	.	8dd\L	.	.	.	.	.	.	.	.	.	.	.	.
!	!	!	!LO:TX:a:t=t	!	!LO:TX:a:t=t	!	!	!	!	!	!	!	!	!	!	!	!
8FF/J	X X n	.	8an\J	.	8cc\J	.	.	.	.	.	.	.	.	.	.	.	.
=43	=43	=43	=43	=43	=43	=43	=43	=43	=43	=43	=43	=43	=43	=43	=43	=43	=43
!LO:TX:t=P:problem:mixed beam	!	!	!	!	!	!	!	!	!	!	!	!	!	!	!	!	!
8BB-'/L	.	.	8b-'/L	.	8b-/L	.	.	.	.	.	.	.	.	.	.	.	.
8F'\	.	.	8f'/	.	8f/	.	.	.	.	.	.	.	.	.	.	.	.
8D'\J	.	.	8d'/J	.	8d/J	.	.	.	.	.	.	.	.	.	.	.	.
=44	=44	=44	=44	=44	=44	=44	=44	=44	=44	=44	=44	=44	=44	=44	=44	=44	=44
!	!	!	!	!	!LO:TX:a:i:t=ſolo	!	!	!	!	!	!	!	!	!	!	!	!
4BB-/	.	.	4B-/	.	4B-/	4.r	.	4.r	.	.	.	.	.	.	.	.	.
!	!	!	!	!	!	!	!	!LO:TX:a:i:t=ſolo	!	!	!	!	!	!	!	!	!
8r	.	.	8r	.	8r	.	.	.	.	.	.	.	.	.	.	.	.
=45	=45	=45	=45	=45	=45	=45	=45	=45	=45	=45	=45	=45	=45	=45	=45	=45	=45
!LO:TX:a:i:t=ſolo	!	!LO:DY:b:t=po	!LO:TX:a:i:t=ſolo	!LO:DY:b:t=pia	!	!	!	!	!	!	!	!	!	!	!	!	!
8BB-/	.	p	8dd\L	p	8ff\L	8D/L	Lux	8F/L	lux	.	.	.	.	.	.	.	.
!	!	!	!	!	!	!LO:TX:a:i:t=ſolo	!	!	!	!	!	!	!	!	!	!	!
8r	.	.	8b-\	.	8dd\	8BB-/J	.	8D/J	.	.	.	.	.	.	.	.	.
8r	.	.	8cc\J	.	8ee-\J	8C/	ae-	8E-/	ae-	.	.	.	.	.	.	.	.
!	!	!	!	!	!	!LO:LB:g=original	!	!	!	!	!	!	!	!	!	!	!
=46	=46	=46	=46	=46	=46	=46	=46	=46	=46	=46	=46	=46	=46	=46	=46	=46	=46
8BB-/L	X 5_ 3_	.	8.dd\L	.	8.ff\L	8.D\L	-ter-	8.F/L	-ter-	1.r	.	1.r	.	1.r	.	1.r	.
8BB-/	X 6 4	.	.	.	.	.	.	.	.	.	.	.	.	.	.	.	.
.	.	.	16ee-\K	.	16gg\K	16E-\Jk	.	16G/Jk	.	.	.	.	.	.	.	.	.
8BB-/J	X 5 3	.	8dd\J	.	8ff\J	8D\	-na	8F/	-na	.	.	.	.	.	.	.	.
=47	=47	=47	=47	=47	=47	=47	=47	=47	=47	=47	=47	=47	=47	=47	=47	=47	=47
8BB-/	.	.	8gg\L	.	8bb-\L	8G\	lu-	8B-/	lu-	.	.	.	.	.	.	.	.
8r	.	.	8ff\	.	8aan\	8F\	-ce-	8An/	-ce-	.	.	.	.	.	.	.	.
8r	.	.	8ee-\J	.	8gg\J	8E-\	-at	8G/	-at	.	.	.	.	.	.	.	.
!LO:LB:g=original	!	!	!	!	!	!	!	!LO:LB:g=original	!	!	!	!	!	!	!	!	!
=48	=48	=48	=48	=48	=48	=48	=48	=48	=48	=48	=48	=48	=48	=48	=48	=48	=48
8BB-/L	X 5 3	.	8.dd\L	.	8.ff\L	8.D/L	e-	8.F/L	e-	.	.	.	.	.	.	.	.
8BB-/	X 4 2	.	.	.	.	.	.	.	.	.	.	.	.	.	.	.	.
.	.	.	16cc\K	.	16ee-\K	16C/Jk	.	16E-/Jk	.	.	.	.	.	.	.	.	.
8BB-/J	X 3 1	.	8b-\J	.	8dd\J	8BB-/	-is	8D/	-is	.	.	.	.	.	.	.	.
=49	=49	=49	=49	=49	=49	=49	=49	=49	=49	=49	=49	=49	=49	=49	=49	=49	=49
8BB-/	.	.	8gg\L	.	8bb-\L	8G\	lu-	8B-\	lu-	.	.	.	.	.	.	.	.
8r	.	.	8ff\	.	8aan\	8F\	-ce-	8An\	-ce-	.	.	.	.	.	.	.	.
8r	.	.	8ee-\J	.	8gg\J	8E-\	-at	8G\	-at	.	.	.	.	.	.	.	.
=50	=50	=50	=50	=50	=50	=50	=50	=50	=50	=50	=50	=50	=50	=50	=50	=50	=50
8BB-/L	X 5 3	.	8.dd\L	.	8.ff\L	8.D/L	e-	8.F/L	e-	2.r	.	2.r	.	2.r	.	2.r	.
8BB-/	X 4 2	.	.	.	.	.	.	.	.	.	.	.	.	.	.	.	.
.	.	.	16cc\Jk	.	16ee-\Jk	16C/Jk	.	16E-/Jk	.	.	.	.	.	.	.	.	.
8BB-/J	X 3 1	.	16b-\LL	.	16dd\LL	16BB-/LL	-is	16D/LL	-is	.	.	.	.	.	.	.	.
.	.	.	16dd\JJ	.	16ff\JJ	16D/JJ	.	16F/JJ	.	.	.	.	.	.	.	.	.
=51	=51	=51	=51	=51	=51	=51	=51	=51	=51	=51	=51	=51	=51	=51	=51	=51	=51
!LO:TX:t=P:problem:mixed beam	!	!	!	!	!	!	!	!	!	!	!	!	!	!	!	!	!
8E-\L	X 8 6	.	16dd\LL	.	16ff\LL	8E-\	do-	16G/LL	do-	.	.	.	.	.	.	.	.
.	X 7 5	.	16cc\JJ	.	16ee-\JJ	.	.	16c/JJ	.	.	.	.	.	.	.	.	.
8F\	X 6 4	.	8b-\L	.	8dd\L	8F\	.	8B-/	.	.	.	.	.	.	.	.	.
8FF/J	X 5 3	.	8an\J	.	8cc\J	8FF/	-mi-	8An/	-mi-	.	.	.	.	.	.	.	.
!	!	!	!LO:LB:g=original	!	!	!	!	!	!	!	!	!	!	!	!	!	!
=52	=52	=52	=52	=52	=52	=52	=52	=52	=52	=52	=52	=52	=52	=52	=52	=52	=52
!LO:TX:t=P:problem:mixed beam	!	!	!	!	!	!	!	!	!	!	!	!	!	!	!	!	!
8BB-/L	.	.	8b-\	.	8b-\|>	8BB-/	-ne	8B-\	-ne	4.r	.	4.r	.	4.r	.	4.r	.
16B-'\L	.	.	8r	.	8r	8r	.	8r	.	.	.	.	.	.	.	.	.
16G'\	.	.	.	.	.	.	.	.	.	.	.	.	.	.	.	.	.
16A-X'\	.	.	8r	.	8r	8r	.	8r	.	.	.	.	.	.	.	.	.
16F'\JJ	.	.	.	.	.	.	.	.	.	.	.	.	.	.	.	.	.
!	!	!	!	!	!	!LO:LB:g=original	!	!	!	!	!	!	!	!	!	!LO:LB:g=original	!
=53	=53	=53	=53	=53	=53	=53	=53	=53	=53	=53	=53	=53	=53	=53	=53	=53	=53
!LO:TX:a:i:t=Tutti	!	!	!LO:TX:a:i:t=Tutti	!	!LO:TX:a:i:t=Tutti	!	!	!LO:TX:a:i:t=Tutti	!	!LO:TX:a:i:t=Tutti	!	!LO:TX:a:i:t=Tutti	!	!	!	!	!
8E-\L	X 5 3	.	8g/L	.	8b-/L	4e-\	Lux	4e-\	Lux	8g\L	Lux	8b-\L	Lux	8g\L	.	8b-\L	.
8E-\	X 3 1	.	8e-/	.	8g/	.	.	.	.	8e-\J	.	8g\J	.	8e-\	.	8g\	.
8E-\J	X 4 2	.	8f/J	.	8a-/J	8e-\	ae-	8e-\	ae-	8f\	ae-	8a-\	-ae-	8f\J	.	8a-\J	.
!	!	!	!	!	!LO:LB:g=original	!	!	!	!	!	!	!	!	!	!	!	!
=54	=54	=54	=54	=54	=54	=54	=54	=54	=54	=54	=54	=54	=54	=54	=54	=54	=54
8E-\L	X 5 3	.	8.g/L	.	8.b-\L	4e-\	-ter-	4e-\	-ter-	8.g\L	-ter-	8.b-\L	-ter-	8.g\L	.	8.b-\L	.
8E-\	X 6 4	.	.	.	.	.	.	.	.	.	.	.	.	.	.	.	.
.	.	.	16a-/K	.	16cc\K	.	.	.	.	16a-\Jk	.	16cc\Jk	.	16a-\K	.	16cc\K	.
8E-\J	X 5 3	.	8g/J	.	8b-\J	8E-\	-na	8E-/	-na	8g\	-na	8b-\	-na	8g\J	.	8b-\J	.
!	!	!	!	!	!	!	!	!LO:LB:g=original	!	!LO:LB:g=original	!	!	!	!	!	!	!
=55	=55	=55	=55	=55	=55	=55	=55	=55	=55	=55	=55	=55	=55	=55	=55	=55	=55
8E-\L	X 8 6	.	8cc/L	.	8ee-\L	8e-\	lu-	8e-\	lu-	8cc\	lu-	8ee-\	lu-	4.r	.	4.r	.
8E-\	X 7 5	.	8b-/	.	8dd\	8e-\	-ce-	8e-\	-ce-	8b-\	-ce-	8dd\	-ce-	.	.	.	.
8E-\J	X 6 4	.	8a-/J	.	8cc\J	8e-\	-at	8e-\	-at	8a-\	-at	8cc\	-at	.	.	.	.
=56	=56	=56	=56	=56	=56	=56	=56	=56	=56	=56	=56	=56	=56	=56	=56	=56	=56
8E-\L	X 5 3	.	8.g/L	.	8.b-/L	4e-\	e-	4e-\	e-	8.g\L	e-	8.b-\L	e-	8.g\L	.	8.b-\L	.
8E-\	X 4 2	.	.	.	.	.	.	.	.	.	.	.	.	.	.	.	.
.	.	.	16f/Jk	.	16a-/K	.	.	.	.	16f\Jk	.	16a-\Jk	.	16f\K	.	16a-\K	.
8E-\J	X 3 1	.	8e-/	.	8g/J	8E-\	-is	8E-/	-is	8e-\	-is	8g\	-is	8e-\J	.	8g\J	.
=57	=57	=57	=57	=57	=57	=57	=57	=57	=57	=57	=57	=57	=57	=57	=57	=57	=57
*	*	*	*Xtuplet	*	*	*	*	*	*	*	*	*	*	*	*	*	*
!	!	!	!	!	!LO:TUP:a:problem:klamra łukowa, kropka zamiast numeru	!	!	!	!	!	!	!	!	!	!	!	!
8E-\L	X 8 6	.	24cc\LL	.	24ee-\LL	8e-\	lu-	8e-\	lu-	8cc\	lu-	8ee-\	lu-	4.r	.	4.r	.
.	.	.	24dd\	.	24ff\	.	.	.	.	.	.	.	.	.	.	.	.
.	.	.	24cc\JJ	.	24ee-\JJ	.	.	.	.	.	.	.	.	.	.	.	.
!	!	!	!	!	!LO:TUP:a:problem:klamra łukowa, kropka zamiast numeru	!	!	!	!	!	!	!	!	!	!	!	!
8E-\	X 7 5	.	24b-\LL	.	24dd\LL	8e-\	-ce-	8e-\	-ce-	8b-\	-ce-	8dd\	-ce-	.	.	.	.
.	.	.	24cc\	.	24ee-\	.	.	.	.	.	.	.	.	.	.	.	.
.	.	.	24b-\JJ	.	24dd\JJ	.	.	.	.	.	.	.	.	.	.	.	.
!	!	!	!	!	!LO:TUP:a:problem:klamra łukowa, kropka zamiast numeru	!	!	!	!	!	!	!	!	!	!	!	!
8E-\J	X 6 4	.	24a-\LL	.	24cc\LL	8e-\	-at	8e-\	-at	8a-\	-at	8cc\	-at	.	.	.	.
.	.	.	24b-\	.	24dd\	.	.	.	.	.	.	.	.	.	.	.	.
.	.	.	24a-\JJ	.	24cc\JJ	.	.	.	.	.	.	.	.	.	.	.	.
!LO:LB:g=original	!	!	!	!	!	!	!	!	!	!	!	!	!	!	!	!	!
=58	=58	=58	=58	=58	=58	=58	=58	=58	=58	=58	=58	=58	=58	=58	=58	=58	=58
8E-\L	X 7 5	.	8.g/L	.	8.b-/L	4e-\	e-	4e-\	e-	8.g\L	e-	8.b-\L	e-	8.g\L	.	(>8.b-\L	.
8E-\	X 4 2	.	.	.	.	.	.	.	.	.	.	.	.	.	.	.	.
.	.	.	16f/Jk	.	16a-/Jk	.	.	.	.	16f\Jk	.	16a-\Jk	.	16f\Jk	.	16a-\Jk)	.
8E-\J	X 3 1	.	16e-/LL	.	16g/LL	8E-\	-is	8E-/	-is	16e-\LL	-is	16g\LL	-is	16e-\LL	.	(>16g\LL	.
.	.	.	16g/JJ	.	16b-/JJ	.	.	.	.	16g\JJ	.	16b-\JJ	.	16g\JJ	.	16b-\JJ)	.
=59	=59	=59	=59	=59	=59	=59	=59	=59	=59	=59	=59	=59	=59	=59	=59	=59	=59
!LO:TX:t=P:problem:mixed beam	!	!	!	!	!	!	!	!	!	!	!	!	!	!	!	!	!
8A-\L	X 8 6	.	16g/LL	.	16b-/LL	8A-\L	do-	8r	.	16g\LL	do-	16b-\LL	do-	16g\LL	.	(>16b-\LL	.
.	X 7 5	.	16f/JJ	.	16a-/JJ	.	.	.	.	16f\JJ	.	16a-\JJ	.	16f\JJ	.	16a-\JJ)	.
8B-\	X 6 4	.	8e-/L	.	8g/L	8B-\J	.	8B-\	do-	8e-\	.	8g/	.	8e-\L	.	8g\L|>	.
8BB-/J	X 5 3	.	8d/J	.	8f/J	8BB-/	-mi-	8B-\	-mi-	8d\	-mi-	8f/	-mi-	8B-\J	.	8f\J|>	.
=60	=60	=60	=60	=60	=60	=60	=60	=60	=60	=60	=60	=60	=60	=60	=60	=60	=60
!	!	!	!LO:TX:t=P:problem:mixed beam	!	!LO:TX:t=P:problem:mixed beam	!	!	!	!	!	!	!	!	!	!	!	!
8E-\	.	.	8e-/L	.	8e-/L|>	8E-\	-ne	8G/	-ne	8e-\	-ne	8e-/	-ne	4G/	.	4e-\|>	.
8r	.	.	8ee-'\	.	8ee-\|>	8r	.	8r	.	8r	.	8r	.	.	.	.	.
8r	.	.	8ee-'\J	.	8ee-\J|>	8r	.	8r	.	8r	.	8r	.	8r	.	8r	.
!	!	!	!LO:LB:g=original	!	!	!	!	!	!	!	!	!LO:LB:g=original	!	!	!	!	!
=61	=61	=61	=61	=61	=61	=61	=61	=61	=61	=61	=61	=61	=61	=61	=61	=61	=61
*	*	*	*tremolo	*	*tremolo	*	*	*	*	*	*	*	*	*2\right	*	*2\right	*
!	!	!	!	!	!	!	!	!	!	!	!	!	!	!LO:N:vis=2.	!	!	!
!	!	!	!LO:N:vis=2	!	!	!	!	!	!	!	!	!	!	!	!	!LO:N:vis=2.	!
8G\L	X X 10	.	32ee- 32e-\LLL	.	64ee-\L	8G\	Cum	8e-\	cum	8g\	cum	8b-\	Cum	[>4.E-/	.	[4.e-\	.
.	.	.	.	.	64ee-\	.	.	.	.	.	.	.	.	.	.	.	.
.	.	.	32ee- 32e-\	.	64ee-\	.	.	.	.	.	.	.	.	.	.	.	.
.	.	.	.	.	64ee-\	.	.	.	.	.	.	.	.	.	.	.	.
.	.	.	32ee- 32e-\	.	64ee-\	.	.	.	.	.	.	.	.	.	.	.	.
.	.	.	.	.	64ee-\	.	.	.	.	.	.	.	.	.	.	.	.
.	.	.	32ee- 32e-\	.	64ee-\	.	.	.	.	.	.	.	.	.	.	.	.
.	.	.	.	.	64ee-\J	.	.	.	.	.	.	.	.	.	.	.	.
8B-\	X X -	.	32ee- 32e-\	.	64ddd-X\L	8B-\	san-	8e-\	San-	8g\	San-	8dd-X\	San-	.	.	.	.
.	.	.	.	.	64ddd-X\	.	.	.	.	.	.	.	.	.	.	.	.
.	.	.	32ee- 32e-\	.	64ddd-X\	.	.	.	.	.	.	.	.	.	.	.	.
.	.	.	.	.	64ddd-X\	.	.	.	.	.	.	.	.	.	.	.	.
.	.	.	32ee- 32e-\	.	64ddd-X\	.	.	.	.	.	.	.	.	.	.	.	.
.	.	.	.	.	64ddd-X\	.	.	.	.	.	.	.	.	.	.	.	.
.	.	.	32ee- 32e-\	.	64ddd-X\	.	.	.	.	.	.	.	.	.	.	.	.
.	.	.	.	.	64ddd-X\J	.	.	.	.	.	.	.	.	.	.	.	.
8A-\J	X X 10	.	32ee- 32e-\	.	64ccc\L	8A-\	-ctis	8e-\	-ctis	8a-\	-ctis	8cc\	-ctis	.	.	.	.
.	.	.	.	.	64ccc\	.	.	.	.	.	.	.	.	.	.	.	.
.	.	.	32ee- 32e-\	.	64ccc\	.	.	.	.	.	.	.	.	.	.	.	.
.	.	.	.	.	64ccc\	.	.	.	.	.	.	.	.	.	.	.	.
.	.	.	32ee- 32e-\	.	64ccc\	.	.	.	.	.	.	.	.	.	.	.	.
.	.	.	.	.	64ccc\	.	.	.	.	.	.	.	.	.	.	.	.
.	.	.	32ee- 32e-\JJJ	.	64ccc\	.	.	.	.	.	.	.	.	.	.	.	.
.	.	.	.	.	64ccc\J	.	.	.	.	.	.	.	.	.	.	.	.
!	!	!	!	!	!	!LO:LB:g=original	!	!	!	!LO:LB:g=original	!	!	!	!	!	!	!
=62	=62	=62	=62	=62	=62	=62	=62	=62	=62	=62	=62	=62	=62	=62	=62	=62	=62
!	!	!	!LO:N:vis=2	!	!	!	!	!	!	!	!	!	!	!	!	!LO:N:vis=2.	!
!	!	!	!	!	!	!	!	!	!	!	!	!	!	!LO:N:vis=2.	!	!	!
8B-\L	X X 6	.	32ee- 32e-\LLL	.	64ee-\L	8B-\L	tu-	4e-\	tu-	4e-\	tu-	8b-\L	tu-	4.E-/_>	.	4.e-\_	.
.	.	.	.	.	64ee-\	.	.	.	.	.	.	.	.	.	.	.	.
.	.	.	32ee- 32e-\	.	64ee-\	.	.	.	.	.	.	.	.	.	.	.	.
.	.	.	.	.	64ee-\	.	.	.	.	.	.	.	.	.	.	.	.
.	.	.	32ee- 32e-\	.	64ee-\	.	.	.	.	.	.	.	.	.	.	.	.
.	.	.	.	.	64ee-\	.	.	.	.	.	.	.	.	.	.	.	.
.	.	.	32ee- 32e-\	.	64ee-\	.	.	.	.	.	.	.	.	.	.	.	.
.	.	.	.	.	64ee-\J	.	.	.	.	.	.	.	.	.	.	.	.
8d-X\	6 4 2	.	32ee- 32e-\	.	64bb-\L	8d-X\J	.	.	.	.	.	8g\J	.	.	.	.	.
.	.	.	.	.	64bb-\	.	.	.	.	.	.	.	.	.	.	.	.
.	.	.	32ee- 32e-\	.	64bb-\	.	.	.	.	.	.	.	.	.	.	.	.
.	.	.	.	.	64bb-\	.	.	.	.	.	.	.	.	.	.	.	.
.	.	.	32ee- 32e-\	.	64bb-\	.	.	.	.	.	.	.	.	.	.	.	.
.	.	.	.	.	64bb-\	.	.	.	.	.	.	.	.	.	.	.	.
.	.	.	32ee- 32e-\	.	64bb-\	.	.	.	.	.	.	.	.	.	.	.	.
.	.	.	.	.	64bb-\J	.	.	.	.	.	.	.	.	.	.	.	.
8c\J	X X 6	.	32ee- 32e-\	.	64aa-\L	8c\	-is	8e-\	-is	8e-\	-is	8a-\	-is	.	.	.	.
.	.	.	.	.	64aa-\	.	.	.	.	.	.	.	.	.	.	.	.
.	.	.	32ee- 32e-\	.	64aa-\	.	.	.	.	.	.	.	.	.	.	.	.
.	.	.	.	.	64aa-\	.	.	.	.	.	.	.	.	.	.	.	.
.	.	.	32ee- 32e-\	.	64aa-\	.	.	.	.	.	.	.	.	.	.	.	.
.	.	.	.	.	64aa-\	.	.	.	.	.	.	.	.	.	.	.	.
.	.	.	32ee- 32e-\JJJ	.	64aa-\	.	.	.	.	.	.	.	.	.	.	.	.
.	.	.	.	.	64aa-\J	.	.	.	.	.	.	.	.	.	.	.	.
!	!	!	!	!	!	!	!	!LO:LB:g=original	!	!	!	!	!LO:LB:g=original	!	!	!	!
=63	=63	=63	=63	=63	=63	=63	=63	=63	=63	=63	=63	=63	=63	=63	=63	=63	=63
!	!	!	!LO:N:vis=2	!	!	!	!	!	!	!	!	!	!	!	!	!LO:N:vis=2.	!
!	!	!	!	!	!	!	!	!	!	!	!	!	!	!LO:N:vis=2.	!	!	!
8G\L	X X 10	.	32ee- 32e-\LLL	.	64ee-\L	8G\L	in	4e-\	in	4g\	in	8b-\L	in	4.E-/]	.	4.e-\_	.
.	.	.	.	.	64ee-\	.	.	.	.	.	.	.	.	.	.	.	.
.	.	.	32ee- 32e-\	.	64ee-\	.	.	.	.	.	.	.	.	.	.	.	.
.	.	.	.	.	64ee-\	.	.	.	.	.	.	.	.	.	.	.	.
.	.	.	32ee- 32e-\	.	64ee-\	.	.	.	.	.	.	.	.	.	.	.	.
.	.	.	.	.	64ee-\	.	.	.	.	.	.	.	.	.	.	.	.
.	.	.	32ee- 32e-\	.	64ee-\	.	.	.	.	.	.	.	.	.	.	.	.
.	.	.	.	.	64ee-\J	.	.	.	.	.	.	.	.	.	.	.	.
8B-\	X X -	.	32ee- 32e-\	.	64ddd-X\L	8B-\J	.	.	.	.	.	8dd-X\J	.	.	.	.	.
.	.	.	.	.	64ddd-X\	.	.	.	.	.	.	.	.	.	.	.	.
.	.	.	32ee- 32e-\	.	64ddd-X\	.	.	.	.	.	.	.	.	.	.	.	.
.	.	.	.	.	64ddd-X\	.	.	.	.	.	.	.	.	.	.	.	.
.	.	.	32ee- 32e-\	.	64ddd-X\	.	.	.	.	.	.	.	.	.	.	.	.
.	.	.	.	.	64ddd-X\	.	.	.	.	.	.	.	.	.	.	.	.
.	.	.	32ee- 32e-\	.	64ddd-X\	.	.	.	.	.	.	.	.	.	.	.	.
.	.	.	.	.	64ddd-X\J	.	.	.	.	.	.	.	.	.	.	.	.
8A-\J	X X 10	.	32ee- 32e-\	.	64ccc\L	8A-\	ae-	8e-\	ae-	8a-\	ae-	8cc\	ae-	.	.	.	.
.	.	.	.	.	64ccc\	.	.	.	.	.	.	.	.	.	.	.	.
.	.	.	32ee- 32e-\	.	64ccc\	.	.	.	.	.	.	.	.	.	.	.	.
.	.	.	.	.	64ccc\	.	.	.	.	.	.	.	.	.	.	.	.
.	.	.	32ee- 32e-\	.	64ccc\	.	.	.	.	.	.	.	.	.	.	.	.
.	.	.	.	.	64ccc\	.	.	.	.	.	.	.	.	.	.	.	.
.	.	.	32ee- 32e-\JJJ	.	64ccc\	.	.	.	.	.	.	.	.	.	.	.	.
.	.	.	.	.	64ccc\J	.	.	.	.	.	.	.	.	.	.	.	.
!	!	!	!	!	!LO:LB:g=original	!	!	!	!	!	!	!	!	!	!	!	!
=64	=64	=64	=64	=64	=64	=64	=64	=64	=64	=64	=64	=64	=64	=64	=64	=64	=64
!	!	!	!LO:N:vis=2	!	!	!	!	!	!	!	!	!	!	!	!	!LO:N:vis=2.	!
!	!	!	!	!	!	!	!	!	!	!	!	!	!	!LO:N:vis=2.	!	!	!
8B-\L	X X 6	.	32ee- 32e-\LLL	.	64ee-\L	8B-\L	-ter-	4e-\	-ter-	4e-\	-ter-	8b-\L	-ter-	4.E-/	.	4.e-\]	.
.	.	.	.	.	64ee-\	.	.	.	.	.	.	.	.	.	.	.	.
.	.	.	32ee- 32e-\	.	64ee-\	.	.	.	.	.	.	.	.	.	.	.	.
.	.	.	.	.	64ee-\	.	.	.	.	.	.	.	.	.	.	.	.
.	.	.	32ee- 32e-\	.	64ee-\	.	.	.	.	.	.	.	.	.	.	.	.
.	.	.	.	.	64ee-\	.	.	.	.	.	.	.	.	.	.	.	.
.	.	.	32ee- 32e-\	.	64ee-\	.	.	.	.	.	.	.	.	.	.	.	.
.	.	.	.	.	64ee-\J	.	.	.	.	.	.	.	.	.	.	.	.
8d-X\	6 4 2	.	32ee- 32e-\	.	64bb-\L	8d-X\J	.	.	.	.	.	8g\J	.	.	.	.	.
.	.	.	.	.	64bb-\	.	.	.	.	.	.	.	.	.	.	.	.
.	.	.	32ee- 32e-\	.	64bb-\	.	.	.	.	.	.	.	.	.	.	.	.
.	.	.	.	.	64bb-\	.	.	.	.	.	.	.	.	.	.	.	.
.	.	.	32ee- 32e-\	.	64bb-\	.	.	.	.	.	.	.	.	.	.	.	.
.	.	.	.	.	64bb-\	.	.	.	.	.	.	.	.	.	.	.	.
.	.	.	32ee- 32e-\	.	64bb-\	.	.	.	.	.	.	.	.	.	.	.	.
.	.	.	.	.	64bb-\J	.	.	.	.	.	.	.	.	.	.	.	.
8c\J	X X 6	.	32ee- 32e-\	.	64aa-\L	8c\	-num	8e-\	-num	8e-\	-num	8a-\	-num	.	.	.	.
.	.	.	.	.	64aa-\	.	.	.	.	.	.	.	.	.	.	.	.
.	.	.	32ee- 32e-\	.	64aa-\	.	.	.	.	.	.	.	.	.	.	.	.
.	.	.	.	.	64aa-\	.	.	.	.	.	.	.	.	.	.	.	.
.	.	.	32ee- 32e-\	.	64aa-\	.	.	.	.	.	.	.	.	.	.	.	.
.	.	.	.	.	64aa-\	.	.	.	.	.	.	.	.	.	.	.	.
.	.	.	32ee- 32e-\JJJ	.	64aa-\	.	.	.	.	.	.	.	.	.	.	.	.
.	.	.	.	.	64aa-\J	.	.	.	.	.	.	.	.	.	.	.	.
*	*	*	*Xtremolo	*	*Xtremolo	*	*	*	*	*	*	*	*	*	*	*	*
=65	=65	=65	=65	=65	=65	=65	=65	=65	=65	=65	=65	=65	=65	=65	=65	=65	=65
!	!	!	!LO:TX:t=P:problem:mixed beam	!	!LO:TX:t=P:problem:mixed beam	!	!	!	!	!	!	!	!	!	!	!	!
4.r	.	.	8B-/L	.	8B-/L|>	4.r	.	4.r	.	4.r	.	4.r	.	4.r	.	4.r	.
.	.	.	8b-\	.	8b-\|>	.	.	.	.	.	.	.	.	.	.	.	.
.	.	.	8b-\J	.	8b-\J|>	.	.	.	.	.	.	.	.	.	.	.	.
!	!	!	!	!	!	!	!	!	!	!	!	!	!	!	!	!LO:LB:g=original	!
=66	=66	=66	=66	=66	=66	=66	=66	=66	=66	=66	=66	=66	=66	=66	=66	=66	=66
*	*	*	*tremolo	*	*tremolo	*	*	*	*	*	*	*	*	*	*	*	*
!	!	!	!	!	!	!	!	!	!	!	!	!	!	!	!	!LO:N:vis=2.	!
!	!	!	!	!	!	!	!	!	!	!	!	!	!	!LO:N:vis=2.	!	!	!
8D\L	X X 10	.	32b-\LLL	.	64b-\L	8D\	Cum	8d\	Cum	8b-\	Cum	8ff\	Cum	[>4.BB-/	.	4.B-/	.
.	.	.	.	.	64b-\	.	.	.	.	.	.	.	.	.	.	.	.
.	.	.	32b-\	.	64b-\	.	.	.	.	.	.	.	.	.	.	.	.
.	.	.	.	.	64b-\	.	.	.	.	.	.	.	.	.	.	.	.
.	.	.	32b-\	.	64b-\	.	.	.	.	.	.	.	.	.	.	.	.
.	.	.	.	.	64b-\	.	.	.	.	.	.	.	.	.	.	.	.
.	.	.	32b-\	.	64b-\	.	.	.	.	.	.	.	.	.	.	.	.
.	.	.	.	.	64b-\J	.	.	.	.	.	.	.	.	.	.	.	.
8F\	X X 10	.	32b-\	.	64aa-\L	8F\	san-	8d\	San-	8b-\	San-	8aa-\	san-	.	.	.	.
.	.	.	.	.	64aa-\	.	.	.	.	.	.	.	.	.	.	.	.
.	.	.	32b-\	.	64aa-\	.	.	.	.	.	.	.	.	.	.	.	.
.	.	.	.	.	64aa-\	.	.	.	.	.	.	.	.	.	.	.	.
.	.	.	32b-\	.	64aa-\	.	.	.	.	.	.	.	.	.	.	.	.
.	.	.	.	.	64aa-\	.	.	.	.	.	.	.	.	.	.	.	.
.	.	.	32b-\	.	64aa-\	.	.	.	.	.	.	.	.	.	.	.	.
.	.	.	.	.	64aa-\J	.	.	.	.	.	.	.	.	.	.	.	.
8E-\J	X X 10	.	32b-\	.	64gg\L	8E-\	-ctis	8e-\	-ctis	8b-\	-ctis	8gg\	-ctis	.	.	.	.
.	.	.	.	.	64gg\	.	.	.	.	.	.	.	.	.	.	.	.
.	.	.	32b-\	.	64gg\	.	.	.	.	.	.	.	.	.	.	.	.
.	.	.	.	.	64gg\	.	.	.	.	.	.	.	.	.	.	.	.
.	.	.	32b-\	.	64gg\	.	.	.	.	.	.	.	.	.	.	.	.
.	.	.	.	.	64gg\	.	.	.	.	.	.	.	.	.	.	.	.
.	.	.	32b-\JJJ	.	64gg\	.	.	.	.	.	.	.	.	.	.	.	.
.	.	.	.	.	64gg\J	.	.	.	.	.	.	.	.	.	.	.	.
=67	=67	=67	=67	=67	=67	=67	=67	=67	=67	=67	=67	=67	=67	=67	=67	=67	=67
!	!	!	!	!	!	!	!	!	!	!	!	!	!	!	!	!LO:N:vis=2.	!
!	!	!	!	!	!	!	!	!	!	!	!	!	!	!LO:N:vis=2.	!	!	!
8F\L	X X 6	.	32b-\LLL	.	64b-\L	8F\L	tu-	4B-\	tu-	4b-\	tu-	8ff\L	tu-	4.BB-/]	.	4.B-/	.
.	.	.	.	.	64b-\	.	.	.	.	.	.	.	.	.	.	.	.
.	.	.	32b-\	.	64b-\	.	.	.	.	.	.	.	.	.	.	.	.
.	.	.	.	.	64b-\	.	.	.	.	.	.	.	.	.	.	.	.
.	.	.	32b-\	.	64b-\	.	.	.	.	.	.	.	.	.	.	.	.
.	.	.	.	.	64b-\	.	.	.	.	.	.	.	.	.	.	.	.
.	.	.	32b-\	.	64b-\	.	.	.	.	.	.	.	.	.	.	.	.
.	.	.	.	.	64b-\J	.	.	.	.	.	.	.	.	.	.	.	.
8A-\	6 4 2	.	32b-\	.	64ff\L	8A-\J	.	.	.	.	.	8dd\J	.	.	.	.	.
.	.	.	.	.	64ff\	.	.	.	.	.	.	.	.	.	.	.	.
.	.	.	32b-\	.	64ff\	.	.	.	.	.	.	.	.	.	.	.	.
.	.	.	.	.	64ff\	.	.	.	.	.	.	.	.	.	.	.	.
.	.	.	32b-\	.	64ff\	.	.	.	.	.	.	.	.	.	.	.	.
.	.	.	.	.	64ff\	.	.	.	.	.	.	.	.	.	.	.	.
.	.	.	32b-\	.	64ff\	.	.	.	.	.	.	.	.	.	.	.	.
.	.	.	.	.	64ff\J	.	.	.	.	.	.	.	.	.	.	.	.
8G\J	X X 6	.	32b-\	.	64ee-\L	8G\	-is	8B-\	-is	8b-\	-is	8ee-\	-is	.	.	.	.
.	.	.	.	.	64ee-\	.	.	.	.	.	.	.	.	.	.	.	.
.	.	.	32b-\	.	64ee-\	.	.	.	.	.	.	.	.	.	.	.	.
.	.	.	.	.	64ee-\	.	.	.	.	.	.	.	.	.	.	.	.
.	.	.	32b-\	.	64ee-\	.	.	.	.	.	.	.	.	.	.	.	.
.	.	.	.	.	64ee-\	.	.	.	.	.	.	.	.	.	.	.	.
.	.	.	32b-\JJJ	.	64ee-\	.	.	.	.	.	.	.	.	.	.	.	.
.	.	.	.	.	64ee-\J	.	.	.	.	.	.	.	.	.	.	.	.
!LO:LB:g=original	!	!	!	!	!	!	!	!	!	!	!	!	!	!	!	!	!
=68	=68	=68	=68	=68	=68	=68	=68	=68	=68	=68	=68	=68	=68	=68	=68	=68	=68
!	!	!	!	!	!	!	!	!	!	!	!	!	!	!	!	!LO:N:vis=2.	!
!	!	!	!	!	!	!	!	!	!	!	!	!	!	!LO:N:vis=2.	!	!	!
8D\L	X X 10	.	32b-\LLL	.	64b-\L	8D\L	in	4d\	in	4b-\	in	8ff\L	in	4.BB-/	.	4.B-/	.
.	.	.	.	.	64b-\	.	.	.	.	.	.	.	.	.	.	.	.
.	.	.	32b-\	.	64b-\	.	.	.	.	.	.	.	.	.	.	.	.
.	.	.	.	.	64b-\	.	.	.	.	.	.	.	.	.	.	.	.
.	.	.	32b-\	.	64b-\	.	.	.	.	.	.	.	.	.	.	.	.
.	.	.	.	.	64b-\	.	.	.	.	.	.	.	.	.	.	.	.
.	.	.	32b-\	.	64b-\	.	.	.	.	.	.	.	.	.	.	.	.
.	.	.	.	.	64b-\J	.	.	.	.	.	.	.	.	.	.	.	.
8F\	X X 10	.	32b-\	.	64aa-\L	8F\J	.	.	.	.	.	8aa-\J	.	.	.	.	.
.	.	.	.	.	64aa-\	.	.	.	.	.	.	.	.	.	.	.	.
.	.	.	32b-\	.	64aa-\	.	.	.	.	.	.	.	.	.	.	.	.
.	.	.	.	.	64aa-\	.	.	.	.	.	.	.	.	.	.	.	.
.	.	.	32b-\	.	64aa-\	.	.	.	.	.	.	.	.	.	.	.	.
.	.	.	.	.	64aa-\	.	.	.	.	.	.	.	.	.	.	.	.
.	.	.	32b-\	.	64aa-\	.	.	.	.	.	.	.	.	.	.	.	.
.	.	.	.	.	64aa-\J	.	.	.	.	.	.	.	.	.	.	.	.
8E-\J	X X 10	.	32b-\	.	64gg\L	8E-\	ae-	8e-\	ae-	8b-\	ae-	8gg\	ae-	.	.	.	.
.	.	.	.	.	64gg\	.	.	.	.	.	.	.	.	.	.	.	.
.	.	.	32b-\	.	64gg\	.	.	.	.	.	.	.	.	.	.	.	.
.	.	.	.	.	64gg\	.	.	.	.	.	.	.	.	.	.	.	.
.	.	.	32b-\	.	64gg\	.	.	.	.	.	.	.	.	.	.	.	.
.	.	.	.	.	64gg\	.	.	.	.	.	.	.	.	.	.	.	.
.	.	.	32b-\JJJ	.	64gg\	.	.	.	.	.	.	.	.	.	.	.	.
.	.	.	.	.	64gg\J	.	.	.	.	.	.	.	.	.	.	.	.
!	!	!	!	!	!	!	!	!	!	!	!	!LO:LB:g=original	!	!	!	!	!
=69	=69	=69	=69	=69	=69	=69	=69	=69	=69	=69	=69	=69	=69	=69	=69	=69	=69
!	!	!	!	!	!	!	!	!	!	!	!	!	!	!	!	!LO:N:vis=2.	!
!	!	!	!	!	!	!	!	!	!	!	!	!	!	!LO:N:vis=2.	!	!	!
8F\L	X X 6	.	32b-\LLL	.	64b-\L	8F\L	-ter-	4B-\	-ter-	4b-\	-ter-	8ff\L	-ter-	4.BB-/	.	4.B-/	.
.	.	.	.	.	64b-\	.	.	.	.	.	.	.	.	.	.	.	.
.	.	.	32b-\	.	64b-\	.	.	.	.	.	.	.	.	.	.	.	.
.	.	.	.	.	64b-\	.	.	.	.	.	.	.	.	.	.	.	.
.	.	.	32b-\	.	64b-\	.	.	.	.	.	.	.	.	.	.	.	.
.	.	.	.	.	64b-\	.	.	.	.	.	.	.	.	.	.	.	.
.	.	.	32b-\	.	64b-\	.	.	.	.	.	.	.	.	.	.	.	.
.	.	.	.	.	64b-\J	.	.	.	.	.	.	.	.	.	.	.	.
8A-\	X X 6	.	32b-\	.	64ff\L	8A-\	.	.	.	.	.	8dd\J	.	.	.	.	.
.	.	.	.	.	64ff\	.	.	.	.	.	.	.	.	.	.	.	.
.	.	.	32b-\	.	64ff\	.	.	.	.	.	.	.	.	.	.	.	.
.	.	.	.	.	64ff\	.	.	.	.	.	.	.	.	.	.	.	.
.	.	.	32b-\	.	64ff\	.	.	.	.	.	.	.	.	.	.	.	.
.	.	.	.	.	64ff\	.	.	.	.	.	.	.	.	.	.	.	.
.	.	.	32b-\	.	64ff\	.	.	.	.	.	.	.	.	.	.	.	.
.	.	.	.	.	64ff\J	.	.	.	.	.	.	.	.	.	.	.	.
8G\J	X X 6	.	32b-\	.	64ee-\L	8G\J	.	8B-\	-num	8b-\	-num	8ee-\	-num	.	.	.	.
.	.	.	.	.	64ee-\	.	.	.	.	.	.	.	.	.	.	.	.
.	.	.	32b-\	.	64ee-\	.	.	.	.	.	.	.	.	.	.	.	.
.	.	.	.	.	64ee-\	.	.	.	.	.	.	.	.	.	.	.	.
.	.	.	32b-\	.	64ee-\	.	.	.	.	.	.	.	.	.	.	.	.
.	.	.	.	.	64ee-\	.	.	.	.	.	.	.	.	.	.	.	.
.	.	.	32b-\JJJ	.	64ee-\	.	.	.	.	.	.	.	.	.	.	.	.
.	.	.	.	.	64ee-\J	.	.	.	.	.	.	.	.	.	.	.	.
*	*	*	*	*	*Xtremolo	*	*	*	*	*	*	*	*	*	*	*	*
*	*	*	*Xtremolo	*	*	*	*	*	*	*	*	*	*	*	*	*	*
!	!	!	!	!	!	!	!	!	!	!LO:LB:g=original	!	!	!	!	!	!	!
=70	=70	=70	=70	=70	=70	=70	=70	=70	=70	=70	=70	=70	=70	=70	=70	=70	=70
8A-\	.	.	8a-/L	.	(>8cc\L	8A-\	-num	2.r	.	8a-\L	qui-	8cc\L	qui-	2.r	.	2.r	.
8r	.	.	8f/	.	8dd\	8r	.	.	.	8f\J	.	8dd\J	.	.	.	.	.
8r	.	.	8g/J	.	8ee-\J)	8r	.	.	.	8g\	-a	8ee-\	-a	.	.	.	.
!	!	!	!	!	!	!LO:LB:g=original	!	!	!	!	!	!	!	!	!	!	!
=71	=71	=71	=71	=71	=71	=71	=71	=71	=71	=71	=71	=71	=71	=71	=71	=71	=71
*	*	*	*	*	*	*	*	*	*	*	*ij	*	*ij	*	*	*	*
4.r	.	.	8d/L	.	(<8f/L	4.r	.	.	.	8d\L	qui-	8f/L	qui-	.	.	.	.
.	.	.	8e-/	.	8g/	.	.	.	.	8e-\J	.	8g/J	.	.	.	.	.
.	.	.	8f/J	.	8a-/J)	.	.	.	.	8f\	-a	8a-/	-a	.	.	.	.
*	*	*	*	*	*	*	*	*	*	*	*Xij	*	*Xij	*	*	*	*
=72	=72	=72	=72	=72	=72	=72	=72	=72	=72	=72	=72	=72	=72	=72	=72	=72	=72
8B-\L	X 6_ 4_	.	4e-/	.	(<8g/L	4B-\	qui-	4B-\	qui-	4e-\	pi-	4g/	pi-	4.e-\	.	4.g\	.
8B-\	.	.	.	.	(<16b-/L)	.	.	.	.	.	.	.	.	.	.	.	.
.	.	.	.	.	16g/	.	.	.	.	.	.	.	.	.	.	.	.
8B-\J	X X X	.	8g/	.	16f/	8B-\	-a	8B-\	-a	8e-\	-us	8g/	-us	.	.	.	.
.	.	.	.	.	16e-/JJ)	.	.	.	.	.	.	.	.	.	.	.	.
!	!	!	!	!	!	!	!	!LO:LB:g=original	!	!	!	!	!	!	!	!	!
=73	=73	=73	=73	=73	=73	=73	=73	=73	=73	=73	=73	=73	=73	=73	=73	=73	=73
8BB-/L	X 5_ 3_	.	4d/	.	(<8f/L	4BB-/	pi-	4B-\	pi-	4d\	pi-	4f/	pi-	4.B-/	.	4.f\	.
8BB-/	.	.	.	.	16a-/L)	.	.	.	.	.	.	.	.	.	.	.	.
.	.	.	.	.	16f/	.	.	.	.	.	.	.	.	.	.	.	.
8BB-/J	X X X	.	8f/	.	16e-/	8BB-/	-us	8B-\	-us	8d\	-us	8f/	-us	.	.	.	.
.	.	.	.	.	16d/JJ	.	.	.	.	.	.	.	.	.	.	.	.
!	!	!	!LO:LB:g=original	!	!	!	!	!	!	!	!	!	!	!	!	!	!
=74	=74	=74	=74	=74	=74	=74	=74	=74	=74	=74	=74	=74	=74	=74	=74	=74	=74
8E-\	.	.	8e-/	.	8e-/L	8E-\	es.	8B-\	es.	8e-\	es.	8g/	es.	8G/	.	8e-\	.
8r	.	.	8r	.	8b-/	8r	.	8r	.	8r	.	8r	.	8r	.	8r	.
8r	.	.	8r	.	8b-/J	8r	.	8r	.	8r	.	8r	.	8r	.	8r	.
!	!	!	!	!	!LO:LB:g=original	!	!	!	!	!	!	!	!	!	!	!	!
=75	=75	=75	=75	=75	=75	=75	=75	=75	=75	=75	=75	=75	=75	=75	=75	=75	=75
*	*	*	*^	*	*	*	*	*	*	*	*	*	*	*	*	*	*
!	!	!	!	!	!	!LO:TX:a:i:t=dolce	!	!	!	!	!	!	!	!	!	!	!	!
4.D\	X 6 5	.	8r	8ryy	.	(<16b-/LL	1.r	.	1.r	.	1.r	.	1.r	.	8r	.	8r	.
.	.	.	.	.	.	16a-/	.	.	.	.	.	.	.	.	.	.	.	.
.	.	.	8b-/L	8a-\L	.	16f/	.	.	.	.	.	.	.	.	8r	.	8r	.
.	.	.	.	.	.	16d/)	.	.	.	.	.	.	.	.	.	.	.	.
!	!	!	!	!	!	!	!	!	!	!	!	!	!	!	!	!LO:DY:b:t=pianiſsimi	!	!
.	.	.	8b-/J	8a-\J	.	16B-/	.	.	.	.	.	.	.	.	8B-/	pp	8f\	pp
.	.	.	.	.	.	16A-/JJ	.	.	.	.	.	.	.	.	.	.	.	.
=76	=76	=76	=76	=76	=76	=76	=76	=76	=76	=76	=76	=76	=76	=76	=76	=76	=76	=76
8E-\	.	.	8b-/	8g\	.	16G/LL	.	.	.	.	.	.	.	.	8e-\	.	8g\	.
.	.	.	.	.	.	16B-/	.	.	.	.	.	.	.	.	.	.	.	.
8r	.	.	8r	4ryy	.	(<16e-/	.	.	.	.	.	.	.	.	8r	.	8r	.
.	.	.	.	.	.	16g/	.	.	.	.	.	.	.	.	.	.	.	.
8r	.	.	8r	.	.	16b-/	.	.	.	.	.	.	.	.	8r	.	8r	.
.	.	.	.	.	.	16b-/JJ)	.	.	.	.	.	.	.	.	.	.	.	.
=77	=77	=77	=77	=77	=77	=77	=77	=77	=77	=77	=77	=77	=77	=77	=77	=77	=77	=77
4.D\	X 6 5	.	8r	8ryy	.	(<16b-/LL	.	.	.	.	.	.	.	.	8r	.	8r	.
.	.	.	.	.	.	16a-/	.	.	.	.	.	.	.	.	.	.	.	.
.	.	.	8b-/L	8a-\L	.	16f/	.	.	.	.	.	.	.	.	8r	.	8r	.
.	.	.	.	.	.	16d/	.	.	.	.	.	.	.	.	.	.	.	.
.	.	.	8b-/J	8a-\J	.	16B-/)	.	.	.	.	.	.	.	.	8B-/	.	8f\	.
.	.	.	.	.	.	16A-/JJ	.	.	.	.	.	.	.	.	.	.	.	.
!	!	!	!	!	!	!	!	!	!	!	!	!	!	!	!	!	!LO:LB:g=original	!
=78	=78	=78	=78	=78	=78	=78	=78	=78	=78	=78	=78	=78	=78	=78	=78	=78	=78	=78
8E-\	.	.	8b-/	8g\	.	16G/LL	.	.	.	.	.	.	.	.	8e-\	.	8g\	.
.	.	.	.	.	.	(<16B-/	.	.	.	.	.	.	.	.	.	.	.	.
8r	.	.	8r	4ryy	.	16e-/	.	.	.	.	.	.	.	.	8r	.	8r	.
.	.	.	.	.	.	16g/	.	.	.	.	.	.	.	.	.	.	.	.
8G\	.	.	[<8e-/	.	.	16b-/	.	.	.	.	.	.	.	.	8r	.	8r	.
.	.	.	.	.	.	16dd-X/JJ)	.	.	.	.	.	.	.	.	.	.	.	.
!	!	!	!	!	!	!	!	!	!	!	!	!	!	!	!LO:LB:g=original	!	!	!
*	*	*	*v	*v	*	*	*	*	*	*	*	*	*	*	*	*	*	*
=79	=79	=79	=79	=79	=79	=79	=79	=79	=79	=79	=79	=79	=79	=79	=79	=79	=79
8A-\L	.	.	8e-/L]	.	(>16bn\LL	1.r	.	1.r	.	1.r	.	1.r	.	2.r	.	2.r	.
.	.	.	.	.	16cc\	.	.	.	.	.	.	.	.	.	.	.	.
8A-\	.	.	16e-/L	.	16cc\	.	.	.	.	.	.	.	.	.	.	.	.
.	.	.	16c/JJ	.	16ee-\)	.	.	.	.	.	.	.	.	.	.	.	.
8F\J	.	.	8A-/	.	16dd\	.	.	.	.	.	.	.	.	.	.	.	.
.	.	.	.	.	16ff\JJ	.	.	.	.	.	.	.	.	.	.	.	.
=80	=80	=80	=80	=80	=80	=80	=80	=80	=80	=80	=80	=80	=80	=80	=80	=80	=80
8G\	.	.	16G/LL	.	8ee-\LM	.	.	.	.	.	.	.	.	.	.	.	.
.	.	.	16B-/JJ	.	.	.	.	.	.	.	.	.	.	.	.	.	.
8r	.	.	8B-/L	.	16gg\L	.	.	.	.	.	.	.	.	.	.	.	.
.	.	.	.	.	16ee-\J	.	.	.	.	.	.	.	.	.	.	.	.
8G\	.	.	[<8e-/J	.	8b-\J	.	.	.	.	.	.	.	.	.	.	.	.
!LO:LB:g=original	!	!	!	!	!	!	!	!	!	!	!	!	!	!	!	!	!
=81	=81	=81	=81	=81	=81	=81	=81	=81	=81	=81	=81	=81	=81	=81	=81	=81	=81
!LO:TX:t=P:problem:mixed beam	!	!	!	!	!	!	!	!	!	!	!	!	!	!	!	!	!
8A-\L	.	.	4e-/]	.	32b-/LLL	.	.	.	.	.	.	.	.	8r	.	8r	.
.	.	.	.	.	32a-/	.	.	.	.	.	.	.	.	.	.	.	.
.	.	.	.	.	32cc/	.	.	.	.	.	.	.	.	.	.	.	.
.	.	.	.	.	32a-/JJJ	.	.	.	.	.	.	.	.	.	.	.	.
8B-\	.	.	.	.	8g/L	.	.	.	.	.	.	.	.	8e-\L	.	8g\L	.
8BB-/J	.	.	8d/	.	8f/J	.	.	.	.	.	.	.	.	8B-\J	.	8f\J	.
=82	=82	=82	=82	=82	=82	=82	=82	=82	=82	=82	=82	=82	=82	=82	=82	=82	=82
!	!	!	!LO:TX:t=P:problem:mixed beam	!	!LO:TX:t=P:problem:mixed beam	!	!	!	!	!	!	!	!	!	!	!	!
8E-\	.	.	8e-/L	.	8g/L	.	.	.	.	.	.	.	.	8e-\	.	8g\	.
8r	.	.	16cc\L	.	16ee-\L	.	.	.	.	.	.	.	.	8r	.	8r	.
.	.	.	16b-\	.	16dd\	.	.	.	.	.	.	.	.	.	.	.	.
8G\	.	.	16a-\	.	16cc\	.	.	.	.	.	.	.	.	8r	.	8r	.
.	.	.	16g\JJ	.	16b-\JJ	.	.	.	.	.	.	.	.	.	.	.	.
!	!	!	!LO:LB:g=original	!	!LO:LB:g=original	!	!	!	!	!	!	!	!	!	!	!	!
=83	=83	=83	=83	=83	=83	=83	=83	=83	=83	=83	=83	=83	=83	=83	=83	=83	=83
!LO:TX:t=P:problem:mixed beam	!	!	!	!	!	!	!	!	!	!	!	!	!	!	!	!	!
8A-\L	.	.	16g/LL	.	16b-/LL	2.r	.	2.r	.	2.r	.	2.r	.	8r	.	8r	.
.	.	.	16f/JJ	.	16a-/JJ	.	.	.	.	.	.	.	.	.	.	.	.
8B-\	.	.	8e-/L	.	8g/L	.	.	.	.	.	.	.	.	8e-\L	.	8g\L	.
8BB-/J	.	.	8d/J	.	8f/J	.	.	.	.	.	.	.	.	8B-\J	.	8f\J	.
=84	=84	=84	=84	=84	=84	=84	=84	=84	=84	=84	=84	=84	=84	=84	=84	=84	=84
8E-\L	.	.	8e-L 8G/	.	8e-L 8G/	.	.	.	.	.	.	.	.	8G/L	.	8e-\L	.
8E-\	.	.	8e- 8G/	.	8e- 8G/	.	.	.	.	.	.	.	.	8G/	.	8e-\	.
8E-\J	.	.	8e-J 8G/	.	8e-J 8G/	.	.	.	.	.	.	.	.	8G/J	.	8e-\J	.
=85	=85	=85	=85	=85	=85	=85	=85	=85	=85	=85	=85	=85	=85	=85	=85	=85	=85
4E-\	.	.	4e- 4G/	.	4e- 4G/	4.r	.	4.r	.	4.r	.	4.r	.	4G/	.	4e-\	.
8r	.	.	8r	.	8r	.	.	.	.	.	.	.	.	8r	.	8r	.
==	==	==	==	==	==	==	==	==	==	==	==	==	==	==	==	==	==
*-	*-	*-	*-	*-	*-	*-	*-	*-	*-	*-	*-	*-	*-	*-	*-	*-	*-
!!!system-decoration: [(g1)][(g2)][(g3)][(s9)]
!!!RDF**kern: | = vertical stroke
!!!RDF**kern: > = above
!!!RDF**kern: < = below
!!!ENC: Andrzej Gręziak
!!!END: 2020-08-18
!!!EED: Antoni Szymański
!!!EST: 2021-11-03
